;FLAVOR:Marlin
;TIME:392
;Filament used: 0.362554m
;Layer height: 0.15
;MINX:67.2
;MINY:67.2
;MINZ:0.3
;MAXX:132.8
;MAXY:132.8
;MAXZ:0.9
;Generated with Cura_SteamEngine 4.5.0
M140 S60
M105
M190 S60
M104 S220
M105
M109 S220
M82 ;absolute extrusion mode
G28 ;Home
G29
G1 Z15.0 F2000 ;Move the platform
G92 E0
G92 E0
G1 F1500 E-6.5
;LAYER_COUNT:5
;LAYER:0
M107
M204 S1000
G0 F8250 X73.685 Y73.802 Z0.3
;TYPE:SKIRT
G1 F1500 E0
G1 F1650 X73.802 Y73.685 E0.00825
G1 X74.388 Y73.155 E0.04767
G1 X75.024 Y72.688 E0.08704
G1 X75.704 Y72.287 E0.12642
G1 X76.422 Y71.957 E0.16585
G1 X77.169 Y71.702 E0.20523
G1 X77.938 Y71.523 E0.24462
G1 X78.722 Y71.423 E0.28405
G1 X79.317 Y71.4 E0.31376
G1 X92.747 Y71.4 E0.98378
G1 X92.779 Y71.334 E0.98744
G1 X93.197 Y70.663 E1.02688
G1 X93.68 Y70.039 E1.06625
G1 X94.085 Y69.602 E1.09598
G1 X94.202 Y69.485 E1.10423
G1 X94.788 Y68.955 E1.14365
G1 X95.424 Y68.488 E1.18301
G1 X96.104 Y68.087 E1.2224
G1 X96.822 Y67.757 E1.26182
G1 X97.569 Y67.502 E1.3012
G1 X98.338 Y67.323 E1.34059
G1 X99.122 Y67.223 E1.38002
G1 X99.717 Y67.2 E1.40973
G1 X100.283 Y67.2 E1.43797
G1 X101.072 Y67.24 E1.47738
G1 X101.852 Y67.359 E1.51675
G1 X102.617 Y67.557 E1.55617
G1 X103.357 Y67.831 E1.59554
G1 X104.066 Y68.179 E1.63494
G1 X104.737 Y68.597 E1.67438
G1 X105.361 Y69.08 E1.71375
G1 X105.798 Y69.485 E1.74348
G1 X105.915 Y69.602 E1.75173
G1 X106.445 Y70.188 E1.79115
G1 X106.912 Y70.824 E1.83052
G1 X107.252 Y71.4 E1.86389
G1 X120.683 Y71.4 E2.53396
G1 X121.472 Y71.44 E2.57338
G1 X122.252 Y71.559 E2.61274
G1 X123.017 Y71.757 E2.65216
G1 X123.757 Y72.031 E2.69153
G1 X124.466 Y72.379 E2.73094
G1 X125.137 Y72.797 E2.77038
G1 X125.761 Y73.28 E2.80974
G1 X126.198 Y73.685 E2.83947
G1 X126.315 Y73.802 E2.84772
G1 X126.845 Y74.388 E2.88714
G1 X127.312 Y75.024 E2.92651
G1 X127.713 Y75.704 E2.96589
G1 X128.043 Y76.422 E3.00532
G1 X128.298 Y77.169 E3.0447
G1 X128.477 Y77.938 E3.08409
G1 X128.577 Y78.722 E3.12352
G1 X128.6 Y79.317 E3.15323
G1 X128.6 Y92.747 E3.82325
G1 X128.666 Y92.779 E3.82691
G1 X129.337 Y93.197 E3.86635
G1 X129.961 Y93.68 E3.90572
G1 X130.398 Y94.085 E3.93544
G1 X130.515 Y94.202 E3.9437
G1 X131.045 Y94.788 E3.98312
G1 X131.512 Y95.424 E4.02248
G1 X131.913 Y96.104 E4.06187
G1 X132.243 Y96.822 E4.10129
G1 X132.498 Y97.569 E4.14067
G1 X132.677 Y98.338 E4.18006
G1 X132.777 Y99.122 E4.21949
G1 X132.8 Y99.717 E4.2492
G1 X132.8 Y100.283 E4.27744
G1 X132.76 Y101.072 E4.31685
G1 X132.641 Y101.852 E4.35622
G1 X132.443 Y102.617 E4.39564
G1 X132.169 Y103.357 E4.43501
G1 X131.821 Y104.066 E4.47441
G1 X131.403 Y104.737 E4.51385
G1 X130.92 Y105.361 E4.55322
G1 X130.515 Y105.798 E4.58295
G1 X130.398 Y105.915 E4.5912
G1 X129.812 Y106.445 E4.63062
G1 X129.176 Y106.912 E4.66999
G1 X128.6 Y107.252 E4.70336
G1 X128.6 Y120.683 E5.37343
G1 X128.56 Y121.472 E5.41285
G1 X128.441 Y122.252 E5.45221
G1 X128.243 Y123.017 E5.49163
G1 X127.969 Y123.757 E5.531
G1 X127.621 Y124.466 E5.57041
G1 X127.203 Y125.137 E5.60985
G1 X126.72 Y125.761 E5.64921
G1 X126.315 Y126.198 E5.67894
G1 X126.198 Y126.315 E5.68719
G1 X125.612 Y126.845 E5.72661
G1 X124.976 Y127.312 E5.76598
G1 X124.296 Y127.713 E5.80536
G1 X123.578 Y128.043 E5.84479
G1 X122.831 Y128.298 E5.88417
G1 X122.062 Y128.477 E5.92356
G1 X121.278 Y128.577 E5.96299
G1 X120.683 Y128.6 E5.9927
G1 X107.253 Y128.6 E6.66272
G1 X107.221 Y128.666 E6.66638
G1 X106.803 Y129.337 E6.70582
G1 X106.32 Y129.961 E6.74519
G1 X105.915 Y130.398 E6.77491
G1 X105.798 Y130.515 E6.78317
G1 X105.212 Y131.045 E6.82259
G1 X104.576 Y131.512 E6.86195
G1 X103.896 Y131.913 E6.90134
G1 X103.178 Y132.243 E6.94076
G1 X102.431 Y132.498 E6.98014
G1 X101.662 Y132.677 E7.01953
G1 X100.878 Y132.777 E7.05896
G1 X100.283 Y132.8 E7.08867
G1 X99.717 Y132.8 E7.11691
G1 X98.928 Y132.76 E7.15632
G1 X98.148 Y132.641 E7.19569
G1 X97.383 Y132.443 E7.23511
G1 X96.643 Y132.169 E7.27448
G1 X95.934 Y131.821 E7.31388
G1 X95.263 Y131.403 E7.35332
G1 X94.639 Y130.92 E7.39269
G1 X94.202 Y130.515 E7.42242
G1 X94.085 Y130.398 E7.43067
G1 X93.555 Y129.812 E7.47009
G1 X93.088 Y129.176 E7.50946
G1 X92.748 Y128.6 E7.54283
G1 X79.317 Y128.6 E8.2129
G1 X78.528 Y128.56 E8.25231
G1 X77.748 Y128.441 E8.29168
G1 X76.983 Y128.243 E8.3311
G1 X76.243 Y127.969 E8.37047
G1 X75.534 Y127.621 E8.40987
G1 X74.863 Y127.203 E8.44932
G1 X74.239 Y126.72 E8.48868
G1 X73.802 Y126.315 E8.51841
G1 X73.685 Y126.198 E8.52666
G1 X73.155 Y125.612 E8.56608
G1 X72.688 Y124.976 E8.60545
G1 X72.287 Y124.296 E8.64483
G1 X71.957 Y123.578 E8.68426
G1 X71.702 Y122.831 E8.72364
G1 X71.523 Y122.062 E8.76303
G1 X71.423 Y121.278 E8.80246
G1 X71.4 Y120.683 E8.83217
G1 X71.4 Y107.253 E9.50219
G1 X71.334 Y107.221 E9.50585
G1 X70.663 Y106.803 E9.54529
G1 X70.039 Y106.32 E9.58466
G1 X69.602 Y105.915 E9.61438
G1 X69.485 Y105.798 E9.62264
G1 X68.955 Y105.212 E9.66206
G1 X68.488 Y104.576 E9.70142
G1 X68.087 Y103.896 E9.74081
G1 X67.757 Y103.178 E9.78023
G1 X67.502 Y102.431 E9.81961
G1 X67.323 Y101.662 E9.859
G1 X67.223 Y100.878 E9.89843
G1 X67.2 Y100.283 E9.92814
G1 X67.2 Y99.717 E9.95638
G1 X67.24 Y98.928 E9.99579
G1 X67.359 Y98.148 E10.03516
G1 X67.557 Y97.383 E10.07458
G1 X67.831 Y96.643 E10.11395
G1 X68.179 Y95.934 E10.15335
G1 X68.597 Y95.263 E10.19279
G1 X69.08 Y94.639 E10.23216
G1 X69.485 Y94.202 E10.26189
G1 X69.602 Y94.085 E10.27014
G1 X70.188 Y93.555 E10.30956
G1 X70.824 Y93.088 E10.34893
G1 X71.4 Y92.748 E10.3823
G1 X71.4 Y79.317 E11.05237
G1 X71.44 Y78.528 E11.09178
G1 X71.559 Y77.748 E11.13115
G1 X71.757 Y76.983 E11.17057
G1 X72.031 Y76.243 E11.20994
G1 X72.379 Y75.534 E11.24934
G1 X72.797 Y74.863 E11.28878
G1 X73.28 Y74.239 E11.32815
G1 X73.685 Y73.802 E11.35788
G0 F8250 X74.084 Y73.967
G1 F1650 X74.656 Y73.453 E11.39624
G1 X75.278 Y73 E11.43463
G1 X75.943 Y72.614 E11.47299
G1 X76.645 Y72.299 E11.51138
G1 X77.376 Y72.059 E11.54977
G1 X78.127 Y71.896 E11.58811
G1 X78.892 Y71.812 E11.6265
G1 X79.317 Y71.8 E11.64771
G1 X92.996 Y71.8 E12.33016
G1 X93.178 Y71.441 E12.35024
G1 X93.594 Y70.794 E12.38862
G1 X94.075 Y70.194 E12.42698
G1 X94.484 Y69.767 E12.45648
G1 X95.056 Y69.253 E12.49485
G1 X95.678 Y68.8 E12.53324
G1 X96.343 Y68.414 E12.5716
G1 X97.045 Y68.099 E12.60999
G1 X97.776 Y67.859 E12.64837
G1 X98.527 Y67.696 E12.68671
G1 X99.292 Y67.612 E12.72511
G1 X99.717 Y67.6 E12.74632
G1 X100.283 Y67.6 E12.77456
G1 X101.051 Y67.64 E12.81292
G1 X101.811 Y67.759 E12.8513
G1 X102.554 Y67.957 E12.88966
G1 X103.273 Y68.231 E12.92805
G1 X103.959 Y68.578 E12.96641
G1 X104.606 Y68.994 E13.00478
G1 X105.206 Y69.475 E13.04315
G1 X105.633 Y69.884 E13.07265
G1 X106.147 Y70.456 E13.11101
G1 X106.6 Y71.078 E13.1494
G1 X106.986 Y71.743 E13.18776
G1 X107.012 Y71.8 E13.19089
G1 X120.683 Y71.8 E13.87294
G1 X121.451 Y71.84 E13.9113
G1 X122.211 Y71.959 E13.94968
G1 X122.954 Y72.157 E13.98805
G1 X123.673 Y72.431 E14.02643
G1 X124.359 Y72.778 E14.06479
G1 X125.006 Y73.194 E14.10316
G1 X125.606 Y73.675 E14.14153
G1 X126.033 Y74.084 E14.17103
G1 X126.547 Y74.656 E14.20939
G1 X127 Y75.278 E14.24778
G1 X127.386 Y75.943 E14.28614
G1 X127.701 Y76.645 E14.32453
G1 X127.941 Y77.376 E14.36292
G1 X128.104 Y78.127 E14.40126
G1 X128.188 Y78.892 E14.43965
G1 X128.2 Y79.317 E14.46086
G1 X128.2 Y92.996 E15.14331
G1 X128.559 Y93.178 E15.16339
G1 X129.206 Y93.594 E15.20177
G1 X129.806 Y94.075 E15.24013
G1 X130.233 Y94.484 E15.26963
G1 X130.747 Y95.056 E15.308
G1 X131.2 Y95.678 E15.34639
G1 X131.586 Y96.343 E15.38475
G1 X131.901 Y97.045 E15.42314
G1 X132.141 Y97.776 E15.46152
G1 X132.304 Y98.527 E15.49986
G1 X132.388 Y99.292 E15.53826
G1 X132.4 Y99.717 E15.55947
G1 X132.4 Y100.283 E15.58771
G1 X132.36 Y101.051 E15.62607
G1 X132.241 Y101.811 E15.66445
G1 X132.043 Y102.554 E15.70281
G1 X131.769 Y103.273 E15.7412
G1 X131.422 Y103.959 E15.77955
G1 X131.006 Y104.606 E15.81793
G1 X130.525 Y105.206 E15.8563
G1 X130.116 Y105.633 E15.88579
G1 X129.544 Y106.147 E15.92416
G1 X128.922 Y106.6 E15.96255
G1 X128.257 Y106.986 E16.00091
G1 X128.2 Y107.012 E16.00404
G1 X128.2 Y120.683 E16.68609
G1 X128.16 Y121.451 E16.72445
G1 X128.041 Y122.211 E16.76283
G1 X127.843 Y122.954 E16.80119
G1 X127.569 Y123.673 E16.83958
G1 X127.222 Y124.359 E16.87794
G1 X126.806 Y125.006 E16.91631
G1 X126.325 Y125.606 E16.95468
G1 X125.916 Y126.033 E16.98418
G1 X125.344 Y126.547 E17.02254
G1 X124.722 Y127 E17.06093
G1 X124.057 Y127.386 E17.09929
G1 X123.355 Y127.701 E17.13768
G1 X122.624 Y127.941 E17.17606
G1 X121.873 Y128.104 E17.2144
G1 X121.108 Y128.188 E17.2528
G1 X120.683 Y128.2 E17.27401
G1 X107.004 Y128.2 E17.95646
G1 X106.822 Y128.559 E17.97654
G1 X106.406 Y129.206 E18.01492
G1 X105.925 Y129.806 E18.05328
G1 X105.516 Y130.233 E18.08278
G1 X104.944 Y130.747 E18.12115
G1 X104.322 Y131.2 E18.15954
G1 X103.657 Y131.586 E18.1979
G1 X102.955 Y131.901 E18.23628
G1 X102.224 Y132.141 E18.27467
G1 X101.473 Y132.304 E18.31301
G1 X100.708 Y132.388 E18.3514
G1 X100.283 Y132.4 E18.37262
G1 X99.717 Y132.4 E18.40085
G1 X98.949 Y132.36 E18.43922
G1 X98.189 Y132.241 E18.4776
G1 X97.446 Y132.043 E18.51596
G1 X96.727 Y131.769 E18.55435
G1 X96.041 Y131.422 E18.5927
G1 X95.394 Y131.006 E18.63108
G1 X94.794 Y130.525 E18.66944
G1 X94.367 Y130.116 E18.69894
G1 X93.853 Y129.544 E18.73731
G1 X93.4 Y128.922 E18.7757
G1 X93.014 Y128.257 E18.81406
G1 X92.988 Y128.2 E18.81719
G1 X79.317 Y128.2 E19.49923
G1 X78.549 Y128.16 E19.5376
G1 X77.789 Y128.041 E19.57598
G1 X77.046 Y127.843 E19.61434
G1 X76.327 Y127.569 E19.65273
G1 X75.641 Y127.222 E19.69108
G1 X74.994 Y126.806 E19.72946
G1 X74.394 Y126.325 E19.76783
G1 X73.967 Y125.916 E19.79732
G1 X73.453 Y125.344 E19.83569
G1 X73 Y124.722 E19.87408
G1 X72.614 Y124.057 E19.91244
G1 X72.299 Y123.355 E19.95083
G1 X72.059 Y122.624 E19.98921
G1 X71.896 Y121.873 E20.02755
G1 X71.812 Y121.108 E20.06595
G1 X71.8 Y120.683 E20.08716
G1 X71.8 Y107.004 E20.76961
G1 X71.441 Y106.822 E20.78969
G1 X70.794 Y106.406 E20.82806
G1 X70.194 Y105.925 E20.86643
G1 X69.767 Y105.516 E20.89593
G1 X69.253 Y104.944 E20.9343
G1 X68.8 Y104.322 E20.97268
G1 X68.414 Y103.657 E21.01105
G1 X68.099 Y102.955 E21.04943
G1 X67.859 Y102.224 E21.08782
G1 X67.696 Y101.473 E21.12616
G1 X67.612 Y100.708 E21.16455
G1 X67.6 Y100.283 E21.18577
G1 X67.6 Y99.717 E21.214
G1 X67.64 Y98.949 E21.25237
G1 X67.759 Y98.189 E21.29075
G1 X67.957 Y97.446 E21.32911
G1 X68.231 Y96.727 E21.3675
G1 X68.578 Y96.041 E21.40585
G1 X68.994 Y95.394 E21.44423
G1 X69.475 Y94.794 E21.48259
G1 X69.884 Y94.367 E21.51209
G1 X70.456 Y93.853 E21.55046
G1 X71.078 Y93.4 E21.58885
G1 X71.743 Y93.014 E21.62721
G1 X71.8 Y92.988 E21.63033
G1 X71.8 Y79.317 E22.31238
G1 X71.84 Y78.549 E22.35075
G1 X71.959 Y77.789 E22.38913
G1 X72.157 Y77.046 E22.42749
G1 X72.431 Y76.327 E22.46588
G1 X72.778 Y75.641 E22.50423
G1 X73.194 Y74.994 E22.54261
G1 X73.675 Y74.394 E22.58097
G1 X74.084 Y73.967 E22.61047
G0 F8250 X74.25 Y74.367
G1 F1650 X74.367 Y74.25 E22.61873
G1 X74.924 Y73.75 E22.65607
G1 X75.53 Y73.313 E22.69335
G1 X76.18 Y72.942 E22.73068
G1 X76.866 Y72.643 E22.76802
G1 X77.58 Y72.419 E22.80535
G1 X78.313 Y72.272 E22.84265
G1 X79.317 Y72.2 E22.89287
G1 X93.237 Y72.2 E23.58734
G1 X93.577 Y71.551 E23.62389
G1 X93.992 Y70.928 E23.66124
G1 X94.65 Y70.167 E23.71143
G1 X94.767 Y70.05 E23.71968
G1 X95.324 Y69.55 E23.75703
G1 X95.93 Y69.113 E23.7943
G1 X96.58 Y68.742 E23.83164
G1 X97.266 Y68.443 E23.86898
G1 X97.98 Y68.219 E23.90631
G1 X98.713 Y68.072 E23.94361
G1 X99.717 Y68 E23.99383
G1 X100.283 Y68 E24.02206
G1 X101.03 Y68.04 E24.05938
G1 X101.768 Y68.159 E24.09668
G1 X102.49 Y68.357 E24.13403
G1 X103.186 Y68.63 E24.17133
G1 X103.849 Y68.977 E24.20866
G1 X104.472 Y69.392 E24.24601
G1 X105.233 Y70.05 E24.2962
G1 X105.35 Y70.167 E24.30445
G1 X105.85 Y70.724 E24.3418
G1 X106.287 Y71.33 E24.37907
G1 X106.658 Y71.98 E24.41641
G1 X106.754 Y72.2 E24.42839
G1 X120.683 Y72.2 E25.12331
G1 X121.43 Y72.24 E25.16063
G1 X122.168 Y72.359 E25.19792
G1 X122.89 Y72.557 E25.23527
G1 X123.586 Y72.83 E25.27257
G1 X124.249 Y73.177 E25.30991
G1 X124.872 Y73.592 E25.34725
G1 X125.633 Y74.25 E25.39744
G1 X125.75 Y74.367 E25.4057
G1 X126.25 Y74.924 E25.44304
G1 X126.687 Y75.53 E25.48032
G1 X127.058 Y76.18 E25.51765
G1 X127.357 Y76.866 E25.55499
G1 X127.581 Y77.58 E25.59232
G1 X127.728 Y78.313 E25.62962
G1 X127.8 Y79.317 E25.67984
G1 X127.8 Y93.237 E26.37431
G1 X128.449 Y93.577 E26.41086
G1 X129.072 Y93.992 E26.44821
G1 X129.833 Y94.65 E26.4984
G1 X129.95 Y94.767 E26.50665
G1 X130.45 Y95.324 E26.544
G1 X130.887 Y95.93 E26.58127
G1 X131.258 Y96.58 E26.61861
G1 X131.557 Y97.266 E26.65595
G1 X131.781 Y97.98 E26.69328
G1 X131.928 Y98.713 E26.73058
G1 X132 Y99.717 E26.7808
G1 X132 Y100.283 E26.80903
G1 X131.96 Y101.03 E26.84635
G1 X131.841 Y101.768 E26.88365
G1 X131.643 Y102.49 E26.921
G1 X131.37 Y103.186 E26.9583
G1 X131.023 Y103.849 E26.99563
G1 X130.608 Y104.472 E27.03298
G1 X129.95 Y105.233 E27.08317
G1 X129.833 Y105.35 E27.09142
G1 X129.276 Y105.85 E27.12877
G1 X128.67 Y106.287 E27.16604
G1 X128.02 Y106.658 E27.20338
G1 X127.8 Y106.754 E27.21536
G1 X127.8 Y120.683 E27.91028
G1 X127.76 Y121.43 E27.9476
G1 X127.641 Y122.168 E27.98489
G1 X127.443 Y122.89 E28.02224
G1 X127.17 Y123.586 E28.05954
G1 X126.823 Y124.249 E28.09688
G1 X126.408 Y124.872 E28.13422
G1 X125.75 Y125.633 E28.18441
G1 X125.633 Y125.75 E28.19267
G1 X125.076 Y126.25 E28.23001
G1 X124.47 Y126.687 E28.26729
G1 X123.82 Y127.058 E28.30462
G1 X123.134 Y127.357 E28.34196
G1 X122.42 Y127.581 E28.37929
G1 X121.687 Y127.728 E28.41659
G1 X120.683 Y127.8 E28.46681
G1 X106.763 Y127.8 E29.16128
G1 X106.423 Y128.449 E29.19783
G1 X106.008 Y129.072 E29.23518
G1 X105.35 Y129.833 E29.28537
G1 X105.233 Y129.95 E29.29362
G1 X104.676 Y130.45 E29.33097
G1 X104.07 Y130.887 E29.36824
G1 X103.42 Y131.258 E29.40558
G1 X102.734 Y131.557 E29.44292
G1 X102.02 Y131.781 E29.48025
G1 X101.287 Y131.928 E29.51755
G1 X100.283 Y132 E29.56776
G1 X99.717 Y132 E29.596
G1 X98.97 Y131.96 E29.63332
G1 X98.232 Y131.841 E29.67062
G1 X97.51 Y131.643 E29.70797
G1 X96.814 Y131.37 E29.74527
G1 X96.151 Y131.023 E29.7826
G1 X95.528 Y130.608 E29.81995
G1 X94.767 Y129.95 E29.87014
G1 X94.65 Y129.833 E29.87839
G1 X94.15 Y129.276 E29.91574
G1 X93.713 Y128.67 E29.95301
G1 X93.342 Y128.02 E29.99035
G1 X93.246 Y127.8 E30.00233
G1 X79.317 Y127.8 E30.69725
G1 X78.57 Y127.76 E30.73457
G1 X77.832 Y127.641 E30.77186
G1 X77.11 Y127.443 E30.80921
G1 X76.414 Y127.17 E30.84651
G1 X75.751 Y126.823 E30.88385
G1 X75.128 Y126.408 E30.92119
G1 X74.367 Y125.75 E30.97138
G1 X74.25 Y125.633 E30.97964
G1 X73.75 Y125.076 E31.01698
G1 X73.313 Y124.47 E31.05426
G1 X72.942 Y123.82 E31.09159
G1 X72.643 Y123.134 E31.12893
G1 X72.419 Y122.42 E31.16626
G1 X72.272 Y121.687 E31.20356
G1 X72.2 Y120.683 E31.25378
G1 X72.2 Y106.763 E31.94825
G1 X71.551 Y106.423 E31.9848
G1 X70.928 Y106.008 E32.02215
G1 X70.167 Y105.35 E32.07234
G1 X70.05 Y105.233 E32.08059
G1 X69.55 Y104.676 E32.11794
G1 X69.113 Y104.07 E32.15521
G1 X68.742 Y103.42 E32.19255
G1 X68.443 Y102.734 E32.22989
G1 X68.219 Y102.02 E32.26722
G1 X68.072 Y101.287 E32.30452
G1 X68 Y100.283 E32.35473
G1 X68 Y99.717 E32.38297
G1 X68.04 Y98.97 E32.42029
G1 X68.159 Y98.232 E32.45759
G1 X68.357 Y97.51 E32.49494
G1 X68.63 Y96.814 E32.53224
G1 X68.977 Y96.151 E32.56957
G1 X69.392 Y95.528 E32.60692
G1 X70.05 Y94.767 E32.65711
G1 X70.167 Y94.65 E32.66536
G1 X70.724 Y94.15 E32.70271
G1 X71.33 Y93.713 E32.73998
G1 X71.98 Y93.342 E32.77732
G1 X72.2 Y93.246 E32.7893
G1 X72.2 Y79.317 E33.48422
G1 X72.24 Y78.57 E33.52154
G1 X72.359 Y77.832 E33.55883
G1 X72.557 Y77.11 E33.59618
G1 X72.83 Y76.414 E33.63348
G1 X73.177 Y75.751 E33.67082
G1 X73.592 Y75.128 E33.70816
G1 X74.25 Y74.367 E33.75835
G0 F8250 X74.533 Y74.65
G1 F1650 X74.65 Y74.533 E33.76661
G1 X75.191 Y74.049 E33.80282
G1 X75.782 Y73.626 E33.83908
G1 X76.416 Y73.272 E33.87531
G1 X77.085 Y72.989 E33.91155
G1 X77.781 Y72.781 E33.94779
G1 X78.496 Y72.651 E33.98405
G1 X79.317 Y72.6 E34.02509
G1 X93.51 Y72.6 E34.73318
G1 X93.63 Y72.303 E34.74916
G1 X93.975 Y71.664 E34.78539
G1 X94.389 Y71.067 E34.82163
G1 X94.933 Y70.45 E34.86267
G1 X95.05 Y70.333 E34.87093
G1 X95.591 Y69.849 E34.90714
G1 X96.182 Y69.426 E34.9434
G1 X96.816 Y69.072 E34.97963
G1 X97.485 Y68.789 E35.01587
