;FLAVOR:Marlin
;TIME:209
;Filament used: 0.10397m
;Layer height: 0.15
;MINX:87.21
;MINY:105.206
;MINZ:0.3
;MAXX:108.79
;MAXY:126.794
;MAXZ:6.9
;Generated with Cura_SteamEngine 4.5.0
M140 S60
M105
M190 S60
M104 S220
M105
M109 S220
M82 ;absolute extrusion mode
G28
G1 Z5 F5000
G92 E0
G92 E0
G1 F1500 E-6.5
;LAYER_COUNT:45
;LAYER:0
M107
M204 S1000
G0 F6000 X90.69 Y108.063 Z0.3
;TYPE:SKIRT
G1 F1500 E0
G1 F1050 X91.054 Y107.76 E0.02363
G1 X91.686 Y107.266 E0.06365
G1 X92.332 Y106.811 E0.10307
G1 X93.021 Y106.425 E0.14247
G1 X93.467 Y106.221 E0.16694
G1 X94.19 Y105.917 E0.20607
G1 X94.932 Y105.648 E0.24544
G1 X95.698 Y105.456 E0.28484
G1 X96.156 Y105.379 E0.30801
G1 X96.931 Y105.273 E0.34704
G1 X97.718 Y105.206 E0.38644
G1 X98.507 Y105.218 E0.42581
G1 X98.963 Y105.262 E0.44867
G1 X99.733 Y105.359 E0.48739
G1 X100.51 Y105.497 E0.52676
G1 X101.27 Y105.714 E0.56619
G1 X101.716 Y105.881 E0.58995
G1 X102.448 Y106.181 E0.62942
G1 X103.163 Y106.517 E0.66883
G1 X103.84 Y106.923 E0.70821
G1 X104.221 Y107.197 E0.73163
G1 X104.841 Y107.67 E0.77053
G1 X105.444 Y108.18 E0.80993
G1 X105.992 Y108.748 E0.84931
G1 X106.276 Y109.094 E0.87164
G1 X106.747 Y109.702 E0.91001
G1 X107.199 Y110.35 E0.94943
G1 X107.582 Y111.04 E0.9888
G1 X107.756 Y111.42 E1.00965
G1 X108.06 Y112.133 E1.04832
G1 X108.333 Y112.874 E1.08772
G1 X108.529 Y113.639 E1.12712
G1 X108.607 Y114.09 E1.14995
G1 X108.718 Y114.868 E1.18916
G1 X108.79 Y115.655 E1.22859
G1 X108.782 Y116.444 E1.26795
G1 X108.741 Y116.893 E1.29045
G1 X108.649 Y117.665 E1.32924
G1 X108.516 Y118.443 E1.36861
G1 X108.305 Y119.204 E1.40801
G1 X108.137 Y119.661 E1.4323
G1 X107.842 Y120.392 E1.47163
G1 X107.51 Y121.108 E1.51101
G1 X107.107 Y121.788 E1.55044
G1 X106.847 Y122.156 E1.57292
G1 X106.38 Y122.778 E1.61173
G1 X105.874 Y123.385 E1.65115
G1 X105.31 Y123.937 E1.69052
G1 X104.946 Y124.24 E1.71415
G1 X104.314 Y124.734 E1.75417
G1 X103.668 Y125.189 E1.79359
G1 X102.979 Y125.575 E1.83299
G1 X102.533 Y125.779 E1.85746
G1 X101.81 Y126.083 E1.89659
G1 X101.068 Y126.352 E1.93597
G1 X100.302 Y126.544 E1.97537
G1 X99.844 Y126.621 E1.99854
G1 X99.069 Y126.727 E2.03756
G1 X98.282 Y126.794 E2.07697
G1 X97.493 Y126.782 E2.11633
G1 X97.037 Y126.738 E2.13919
G1 X96.267 Y126.641 E2.17791
G1 X95.49 Y126.503 E2.21728
G1 X94.73 Y126.286 E2.25671
G1 X94.284 Y126.119 E2.28047
G1 X93.552 Y125.819 E2.31994
G1 X92.837 Y125.483 E2.35935
G1 X92.16 Y125.077 E2.39874
G1 X91.779 Y124.803 E2.42215
G1 X91.159 Y124.33 E2.46106
G1 X90.556 Y123.82 E2.50046
G1 X90.008 Y123.252 E2.53983
G1 X89.724 Y122.906 E2.56217
G1 X89.253 Y122.298 E2.60054
G1 X88.801 Y121.65 E2.63995
G1 X88.418 Y120.96 E2.67932
G1 X88.244 Y120.58 E2.70018
G1 X87.94 Y119.867 E2.73885
G1 X87.667 Y119.126 E2.77824
G1 X87.471 Y118.361 E2.81764
G1 X87.393 Y117.908 E2.84058
G1 X87.282 Y117.129 E2.87983
G1 X87.21 Y116.343 E2.91921
G1 X87.219 Y115.553 E2.95863
G1 X87.259 Y115.105 E2.98107
G1 X87.351 Y114.334 E3.0198
G1 X87.484 Y113.555 E3.05923
G1 X87.695 Y112.795 E3.09858
G1 X87.863 Y112.339 E3.12283
G1 X88.158 Y111.608 E3.16215
G1 X88.49 Y110.892 E3.20153
G1 X88.893 Y110.212 E3.24096
G1 X89.153 Y109.844 E3.26344
G1 X89.62 Y109.222 E3.30225
G1 X90.126 Y108.615 E3.34167
G1 X90.69 Y108.063 E3.38105
G0 F6000 X90.985 Y108.336
G1 F1050 X91.301 Y108.075 E3.40149
G1 X91.933 Y107.581 E3.44151
G1 X92.563 Y107.139 E3.47991
G1 X93.235 Y106.765 E3.51828
G1 X93.622 Y106.589 E3.53949
G1 X94.345 Y106.285 E3.57862
G1 X95.068 Y106.025 E3.61695
G1 X95.815 Y105.84 E3.65534
G1 X96.21 Y105.775 E3.67531
G1 X96.985 Y105.669 E3.71434
G1 X97.752 Y105.605 E3.75274
G1 X98.521 Y105.62 E3.79111
G1 X98.913 Y105.659 E3.81076
G1 X99.683 Y105.756 E3.84948
G1 X100.44 Y105.892 E3.88785
G1 X101.179 Y106.105 E3.92622
G1 X101.564 Y106.251 E3.94677
G1 X102.296 Y106.551 E3.98623
G1 X102.992 Y106.879 E4.02462
G1 X103.65 Y107.278 E4.06301
G1 X103.978 Y107.515 E4.0832
G1 X104.598 Y107.988 E4.12211
G1 X105.185 Y108.485 E4.16048
G1 X105.716 Y109.041 E4.19884
G1 X105.96 Y109.339 E4.21805
G1 X106.431 Y109.947 E4.25642
G1 X106.87 Y110.579 E4.29481
G1 X107.388 Y111.577 E4.35091
G1 X107.692 Y112.29 E4.38958
G1 X107.957 Y113.012 E4.42795
G1 X108.145 Y113.758 E4.46633
G1 X108.211 Y114.147 E4.48602
G1 X108.322 Y114.925 E4.52523
G1 X108.391 Y115.691 E4.5636
G1 X108.38 Y116.46 E4.60197
G1 X108.344 Y116.846 E4.62131
G1 X108.252 Y117.618 E4.66009
G1 X108.121 Y118.376 E4.69847
G1 X107.913 Y119.116 E4.73682
G1 X107.766 Y119.511 E4.75785
G1 X107.471 Y120.242 E4.79718
G1 X107.147 Y120.94 E4.83557
G1 X106.752 Y121.6 E4.87394
G1 X106.527 Y121.916 E4.8933
G1 X106.06 Y122.538 E4.9321
G1 X105.567 Y123.128 E4.97046
G1 X105.015 Y123.664 E5.00884
G1 X104.699 Y123.925 E5.02929
G1 X104.067 Y124.419 E5.06931
G1 X103.437 Y124.861 E5.10771
G1 X102.765 Y125.235 E5.14608
G1 X102.378 Y125.411 E5.16729
G1 X101.655 Y125.715 E5.20642
G1 X100.932 Y125.975 E5.24475
G1 X100.185 Y126.16 E5.28314
G1 X99.79 Y126.225 E5.30311
G1 X99.015 Y126.331 E5.34214
G1 X98.248 Y126.395 E5.38054
G1 X97.479 Y126.38 E5.41891
G1 X97.087 Y126.341 E5.43856
G1 X96.317 Y126.244 E5.47728
G1 X95.56 Y126.108 E5.51565
G1 X94.821 Y125.895 E5.55402
G1 X94.436 Y125.749 E5.57457
G1 X93.704 Y125.449 E5.61403
G1 X93.008 Y125.121 E5.65242
G1 X92.35 Y124.722 E5.69081
G1 X92.022 Y124.485 E5.711
G1 X91.402 Y124.012 E5.74991
G1 X90.815 Y123.515 E5.78828
G1 X90.284 Y122.959 E5.82664
G1 X90.04 Y122.661 E5.84585
G1 X89.569 Y122.053 E5.88422
G1 X89.13 Y121.421 E5.92261
G1 X88.612 Y120.423 E5.97871
G1 X88.308 Y119.71 E6.01738
G1 X88.043 Y118.988 E6.05575
G1 X87.855 Y118.242 E6.09413
G1 X87.789 Y117.852 E6.11387
G1 X87.678 Y117.073 E6.15312
G1 X87.609 Y116.307 E6.19149
G1 X87.62 Y115.538 E6.22986
G1 X87.656 Y115.152 E6.2492
G1 X87.748 Y114.381 E6.28794
G1 X87.879 Y113.623 E6.32632
G1 X88.088 Y112.883 E6.36468
G1 X88.234 Y112.489 E6.38565
G1 X88.529 Y111.758 E6.42497
G1 X88.853 Y111.06 E6.46337
G1 X89.248 Y110.4 E6.50174
G1 X89.473 Y110.084 E6.52109
G1 X89.94 Y109.462 E6.5599
G1 X90.433 Y108.872 E6.59826
G1 X90.985 Y108.336 E6.63664
G0 F6000 X91.547 Y108.39
G1 F1050 X92.179 Y107.896 E6.67666
G1 X92.792 Y107.467 E6.71399
G1 X93.777 Y106.958 E6.76931
G1 X94.5 Y106.654 E6.80844
G1 X95.204 Y106.402 E6.84574
G1 X96.264 Y106.172 E6.89985
G1 X97.039 Y106.066 E6.93888
G1 X97.785 Y106.004 E6.97623
G1 X98.863 Y106.056 E7.03007
G1 X99.633 Y106.153 E7.06879
G1 X100.369 Y106.286 E7.1061
G1 X101.413 Y106.621 E7.1608
G1 X102.145 Y106.921 E7.20027
G1 X102.821 Y107.241 E7.23759
G1 X103.736 Y107.833 E7.29196
G1 X104.356 Y108.306 E7.33086
G1 X104.925 Y108.791 E7.36816
G1 X105.644 Y109.584 E7.42157
G1 X106.115 Y110.192 E7.45994
G1 X106.541 Y110.807 E7.49726
G1 X107.02 Y111.734 E7.54932
G1 X107.324 Y112.447 E7.58799
G1 X107.58 Y113.149 E7.62527
G1 X107.815 Y114.203 E7.67914
G1 X107.926 Y114.981 E7.71835
G1 X107.992 Y115.726 E7.75566
G1 X107.947 Y116.798 E7.80919
G1 X107.855 Y117.57 E7.84798
G1 X107.727 Y118.307 E7.8853
G1 X107.395 Y119.362 E7.94048
G1 X107.1 Y120.093 E7.97981
G1 X106.784 Y120.77 E8.01708
G1 X106.207 Y121.676 E8.07067
G1 X105.74 Y122.298 E8.10947
G1 X105.259 Y122.871 E8.1468
G1 X104.453 Y123.61 E8.20135
G1 X103.821 Y124.104 E8.24137
G1 X103.208 Y124.533 E8.2787
G1 X102.223 Y125.042 E8.33402
G1 X101.5 Y125.346 E8.37315
G1 X100.796 Y125.598 E8.41045
G1 X99.736 Y125.828 E8.46457
G1 X98.961 Y125.934 E8.50359
G1 X98.215 Y125.996 E8.54094
G1 X97.137 Y125.944 E8.59478
G1 X96.367 Y125.847 E8.6335
G1 X95.631 Y125.714 E8.67081
G1 X94.587 Y125.379 E8.72552
G1 X93.855 Y125.079 E8.76498
G1 X93.179 Y124.759 E8.8023
G1 X92.264 Y124.167 E8.85667
G1 X91.644 Y123.694 E8.89557
G1 X91.075 Y123.209 E8.93287
G1 X90.356 Y122.416 E8.98628
G1 X89.885 Y121.808 E9.02465
G1 X89.459 Y121.193 E9.06197
G1 X88.98 Y120.266 E9.11403
G1 X88.676 Y119.553 E9.1527
G1 X88.42 Y118.851 E9.18998
G1 X88.185 Y117.795 E9.24395
G1 X88.074 Y117.016 E9.28321
G1 X88.008 Y116.271 E9.32052
G1 X88.053 Y115.2 E9.374
G1 X88.145 Y114.429 E9.41274
G1 X88.274 Y113.692 E9.45007
G1 X88.605 Y112.638 E9.50518
G1 X88.9 Y111.907 E9.54451
G1 X89.216 Y111.23 E9.58179
G1 X89.793 Y110.324 E9.63538
G1 X90.26 Y109.702 E9.67418
G1 X90.741 Y109.129 E9.7115
G1 X91.547 Y108.39 E9.76606
G0 F6000 X91.793 Y108.705
G1 F1050 X92.425 Y108.211 E9.80608
G1 X93.022 Y107.796 E9.84235
G1 X93.932 Y107.327 E9.89343
G1 X94.655 Y107.023 E9.93256
G1 X95.339 Y106.779 E9.96879
G1 X96.319 Y106.568 E10.0188
G1 X97.094 Y106.462 E10.05783
G1 X97.818 Y106.403 E10.09407
G1 X98.813 Y106.453 E10.14377
G1 X99.583 Y106.55 E10.18249
G1 X100.297 Y106.68 E10.2187
G1 X101.261 Y106.991 E10.26923
G1 X101.993 Y107.291 E10.3087
G1 X102.649 Y107.603 E10.34494
G1 X103.493 Y108.151 E10.39514
G1 X104.113 Y108.624 E10.43405
G1 X104.666 Y109.095 E10.47029
G1 X105.328 Y109.829 E10.5196
G1 X105.799 Y110.437 E10.55797
G1 X106.211 Y111.035 E10.5942
G1 X106.652 Y111.89 E10.6422
G1 X106.956 Y112.603 E10.68087
G1 X107.204 Y113.286 E10.71712
G1 X107.419 Y114.26 E10.76688
G1 X107.53 Y115.038 E10.80609
G1 X107.593 Y115.761 E10.8423
G1 X107.55 Y116.751 E10.89174
G1 X107.458 Y117.523 E10.93052
G1 X107.332 Y118.238 E10.96675
G1 X107.024 Y119.212 E11.01771
G1 X106.729 Y119.943 E11.05704
G1 X106.421 Y120.601 E11.09328
G1 X105.887 Y121.436 E11.14273
G1 X105.42 Y122.058 E11.18154
G1 X104.953 Y122.614 E11.21776
G1 X104.207 Y123.295 E11.26816
G1 X103.575 Y123.789 E11.30818
G1 X102.978 Y124.204 E11.34445
G1 X102.068 Y124.673 E11.39552
G1 X101.345 Y124.977 E11.43465
G1 X100.661 Y125.221 E11.47089
G1 X99.681 Y125.432 E11.5209
G1 X98.906 Y125.538 E11.55992
G1 X98.182 Y125.597 E11.59616
G1 X97.187 Y125.547 E11.64587
G1 X96.417 Y125.45 E11.68459
G1 X95.703 Y125.32 E11.72079
G1 X94.739 Y125.009 E11.77133
G1 X94.007 Y124.709 E11.8108
G1 X93.351 Y124.397 E11.84704
G1 X92.507 Y123.849 E11.89724
G1 X91.887 Y123.376 E11.93615
G1 X91.334 Y122.905 E11.97239
G1 X90.672 Y122.171 E12.0217
G1 X90.201 Y121.563 E12.06007
G1 X89.789 Y120.965 E12.0963
G1 X89.348 Y120.11 E12.1443
G1 X89.044 Y119.397 E12.18297
G1 X88.796 Y118.714 E12.21922
G1 X88.581 Y117.739 E12.26903
G1 X88.47 Y116.96 E12.30829
G1 X88.407 Y116.236 E12.34454
G1 X88.45 Y115.247 E12.39393
G1 X88.542 Y114.476 E12.43267
G1 X88.668 Y113.761 E12.46889
G1 X88.976 Y112.788 E12.51981
G1 X89.271 Y112.057 E12.55914
G1 X89.579 Y111.399 E12.59538
G1 X90.113 Y110.564 E12.64483
G1 X90.58 Y109.942 E12.68363
G1 X91.047 Y109.386 E12.71986
G1 X91.793 Y108.705 E12.77025
G0 F6000 X92.04 Y109.02
G1 F1050 X92.672 Y108.526 E12.81027
G1 X93.25 Y108.125 E12.84537
G1 X94.087 Y107.696 E12.89229
G1 X94.81 Y107.392 E12.93142
G1 X95.473 Y107.156 E12.96653
G1 X96.373 Y106.964 E13.01245
G1 X97.148 Y106.858 E13.05147
G1 X97.85 Y106.803 E13.0866
G1 X98.763 Y106.85 E13.13221
G1 X99.533 Y106.947 E13.17093
G1 X100.225 Y107.074 E13.20603
G1 X101.109 Y107.361 E13.2524
G1 X101.841 Y107.661 E13.29187
G1 X102.476 Y107.965 E13.32699
G1 X103.251 Y108.469 E13.37311
G1 X103.871 Y108.942 E13.41202
G1 X104.405 Y109.4 E13.44712
G1 X105.011 Y110.074 E13.49233
G1 X105.482 Y110.682 E13.53071
G1 X105.881 Y111.262 E13.56583
G1 X106.284 Y112.047 E13.60985
G1 X106.588 Y112.76 E13.64852
G1 X106.827 Y113.423 E13.68368
G1 X107.023 Y114.316 E13.72929
G1 X107.134 Y115.094 E13.7685
G1 X107.194 Y115.796 E13.80365
G1 X107.152 Y116.704 E13.849
G1 X107.06 Y117.476 E13.88779
G1 X106.938 Y118.169 E13.92289
G1 X106.653 Y119.062 E13.96966
G1 X106.358 Y119.793 E14.00899
G1 X106.058 Y120.43 E14.04412
G1 X105.567 Y121.196 E14.08951
G1 X105.1 Y121.818 E14.12831
G1 X104.646 Y122.356 E14.16343
G1 X103.96 Y122.98 E14.2097
G1 X103.328 Y123.474 E14.24972
G1 X102.75 Y123.875 E14.28482
G1 X101.913 Y124.304 E14.33174
G1 X101.19 Y124.608 E14.37087
G1 X100.527 Y124.844 E14.40598
G1 X99.627 Y125.036 E14.45189
G1 X98.852 Y125.142 E14.49092
G1 X98.15 Y125.197 E14.52605
G1 X97.237 Y125.15 E14.57166
G1 X96.467 Y125.053 E14.61038
G1 X95.775 Y124.926 E14.64548
G1 X94.891 Y124.639 E14.69184
G1 X94.159 Y124.339 E14.73131
G1 X93.524 Y124.035 E14.76644
G1 X92.749 Y123.531 E14.81256
G1 X92.129 Y123.058 E14.85146
G1 X91.595 Y122.6 E14.88656
G1 X90.989 Y121.926 E14.93178
G1 X90.518 Y121.318 E14.97015
G1 X90.119 Y120.738 E15.00527
G1 X89.716 Y119.953 E15.0493
G1 X89.412 Y119.24 E15.08797
G1 X89.173 Y118.577 E15.12313
G1 X88.977 Y117.683 E15.16879
G1 X88.866 Y116.904 E15.20805
G1 X88.806 Y116.202 E15.2432
G1 X88.848 Y115.294 E15.28854
G1 X88.94 Y114.523 E15.32728
G1 X89.063 Y113.83 E15.3624
G1 X89.347 Y112.938 E15.4091
G1 X89.642 Y112.207 E15.44843
G1 X89.942 Y111.57 E15.48356
G1 X90.433 Y110.804 E15.52895
G1 X90.9 Y110.182 E15.56775
G1 X91.354 Y109.644 E15.60287
G1 X92.04 Y109.02 E15.64914
G0 F6000 X92.286 Y109.335
G1 F1050 X92.918 Y108.841 E15.68916
G1 X93.478 Y108.454 E15.72312
G1 X94.242 Y108.064 E15.76592
G1 X94.965 Y107.76 E15.80505
G1 X95.607 Y107.534 E15.839
G1 X96.427 Y107.361 E15.88081
G1 X97.202 Y107.255 E15.91984
G1 X97.881 Y107.202 E15.95382
G1 X98.713 Y107.246 E15.99538
G1 X99.483 Y107.343 E16.0341
G1 X100.152 Y107.468 E16.06806
G1 X100.957 Y107.731 E16.11031
G1 X101.689 Y108.031 E16.14977
G1 X102.303 Y108.326 E16.18376
G1 X103.008 Y108.787 E16.22578
G1 X103.628 Y109.26 E16.26469
G1 X104.144 Y109.704 E16.29865
G1 X104.695 Y110.319 E16.33985
G1 X105.166 Y110.927 E16.37822
G1 X105.551 Y111.489 E16.4122
G1 X105.916 Y112.204 E16.45225
G1 X106.22 Y112.917 E16.49092
G1 X106.45 Y113.558 E16.5249
G1 X106.627 Y114.373 E16.56651
G1 X106.738 Y115.151 E16.60572
G1 X106.794 Y115.829 E16.63966
G1 X106.755 Y116.656 E16.68096
G1 X106.663 Y117.428 E16.71975
G1 X106.543 Y118.099 E16.75376
G1 X106.283 Y118.913 E16.79639
G1 X105.988 Y119.644 E16.83572
G1 X105.696 Y120.259 E16.86968
G1 X105.247 Y120.955 E16.911
G1 X104.78 Y121.577 E16.94981
G1 X104.34 Y122.097 E16.98379
G1 X103.714 Y122.665 E17.02596
G1 X103.082 Y123.159 E17.06598
G1 X102.522 Y123.546 E17.09994
G1 X101.758 Y123.936 E17.14274
G1 X101.035 Y124.24 E17.18187
G1 X100.393 Y124.466 E17.21582
G1 X99.573 Y124.639 E17.25764
G1 X98.798 Y124.745 E17.29666
G1 X98.119 Y124.798 E17.33064
G1 X97.287 Y124.754 E17.37221
G1 X96.517 Y124.657 E17.41092
G1 X95.848 Y124.532 E17.44488
G1 X95.043 Y124.269 E17.48713
G1 X94.311 Y123.969 E17.5266
G1 X93.697 Y123.674 E17.56058
G1 X92.992 Y123.213 E17.60261
G1 X92.372 Y122.74 E17.64151
G1 X91.856 Y122.296 E17.67547
G1 X91.305 Y121.681 E17.71667
G1 X90.834 Y121.073 E17.75504
G1 X90.449 Y120.511 E17.78903
G1 X90.084 Y119.796 E17.82908
G1 X89.78 Y119.083 E17.86775
G1 X89.55 Y118.442 E17.90172
G1 X89.373 Y117.626 E17.94338
G1 X89.262 Y116.847 E17.98264
G1 X89.206 Y116.169 E18.01658
G1 X89.245 Y115.342 E18.05788
G1 X89.337 Y114.571 E18.09662
G1 X89.457 Y113.901 E18.13058
G1 X89.717 Y113.087 E18.17321
G1 X90.012 Y112.356 E18.21254
G1 X90.304 Y111.741 E18.2465
G1 X90.753 Y111.045 E18.28783
G1 X91.22 Y110.423 E18.32663
G1 X91.66 Y109.903 E18.36061
G1 X92.286 Y109.335 E18.40279
G0 F6000 X92.532 Y109.65
G1 F1050 X93.164 Y109.156 E18.44281
G1 X93.706 Y108.784 E18.4756
G1 X94.397 Y108.433 E18.51427
G1 X95.12 Y108.129 E18.5534
G1 X95.74 Y107.912 E18.58617
G1 X96.481 Y107.757 E18.62394
G1 X97.256 Y107.651 E18.66296
G1 X97.911 Y107.602 E18.69573
G1 X98.663 Y107.643 E18.73331
G1 X99.433 Y107.74 E18.77203
G1 X100.079 Y107.862 E18.80482
G1 X100.806 Y108.101 E18.843
G1 X101.538 Y108.401 E18.88247
G1 X102.129 Y108.687 E18.91523
G1 X102.765 Y109.105 E18.9532
G1 X103.385 Y109.578 E18.9921
G1 X103.882 Y110.007 E19.02486
G1 X104.379 Y110.564 E19.0621
G1 X104.85 Y111.172 E19.10047
G1 X105.22 Y111.715 E19.13325
G1 X105.548 Y112.361 E19.1694
G1 X105.852 Y113.074 E19.20807
G1 X106.073 Y113.693 E19.24086
G1 X106.231 Y114.429 E19.27842
G1 X106.342 Y115.207 E19.31762
G1 X106.395 Y115.862 E19.35041
G1 X106.358 Y116.609 E19.38772
G1 X106.266 Y117.381 E19.42651
G1 X106.149 Y118.027 E19.45926
G1 X105.912 Y118.763 E19.49784
G1 X105.617 Y119.494 E19.53717
G1 X105.334 Y120.087 E19.56995
G1 X104.927 Y120.715 E19.60728
G1 X104.46 Y121.337 E19.64609
G1 X104.035 Y121.838 E19.67887
G1 X103.468 Y122.35 E19.71698
G1 X102.836 Y122.844 E19.757
G1 X102.294 Y123.216 E19.7898
G1 X101.603 Y123.567 E19.82846
G1 X100.88 Y123.871 E19.86759
G1 X100.26 Y124.088 E19.90036
G1 X99.519 Y124.243 E19.93813
G1 X98.744 Y124.349 E19.97716
