;FLAVOR:Marlin
;TIME:19195
;Filament used: 11.2294m
;Layer height: 0.15
;MINX:30.7
;MINY:33.45
;MINZ:0.3
;MAXX:169.3
;MAXY:126.55
;MAXZ:3.9
;Generated with Cura_SteamEngine 4.5.0
M140 S60
M105
M190 S60
M104 S220
M105
M109 S220
M82 ;absolute extrusion mode
G28
G1 Z5 F5000
G92 E0
G92 E0
G1 F2400 E-2.5
;LAYER_COUNT:25
;LAYER:0
M107
M204 S1000
G0 F6750 X33.123 Y35.599 Z0.3
;TYPE:SKIRT
G1 F2400 E0
G1 F1350 X33.722 Y35.084 E0.03941
G1 X34.37 Y34.633 E0.0788
G1 X35.061 Y34.249 E0.11824
G1 X35.786 Y33.937 E0.15762
G1 X36.539 Y33.7 E0.197
G1 X37.313 Y33.541 E0.23642
G1 X38.098 Y33.46 E0.27579
G1 X38.5 Y33.45 E0.29586
G1 X161.5 Y33.45 E6.43235
G1 X162.289 Y33.49 E6.47176
G1 X163.069 Y33.609 E6.51113
G1 X163.834 Y33.807 E6.55055
G1 X164.574 Y34.081 E6.58992
G1 X165.283 Y34.429 E6.62932
G1 X165.954 Y34.847 E6.66876
G1 X166.578 Y35.33 E6.70813
G1 X167.151 Y35.873 E6.74752
G1 X167.666 Y36.472 E6.78693
G1 X168.117 Y37.12 E6.82632
G1 X168.501 Y37.811 E6.86576
G1 X168.813 Y38.536 E6.90513
G1 X169.05 Y39.289 E6.94452
G1 X169.209 Y40.063 E6.98394
G1 X169.29 Y40.848 E7.02331
G1 X169.3 Y41.25 E7.04337
G1 X169.3 Y118.75 E10.90986
G1 X169.26 Y119.539 E10.94928
G1 X169.141 Y120.319 E10.98864
G1 X168.943 Y121.084 E11.02807
G1 X168.669 Y121.824 E11.06743
G1 X168.321 Y122.533 E11.10684
G1 X167.903 Y123.204 E11.14628
G1 X167.42 Y123.828 E11.18565
G1 X166.877 Y124.401 E11.22503
G1 X166.278 Y124.916 E11.26444
G1 X165.63 Y125.367 E11.30383
G1 X164.939 Y125.751 E11.34327
G1 X164.214 Y126.063 E11.38265
G1 X163.461 Y126.3 E11.42203
G1 X162.687 Y126.459 E11.46145
G1 X161.902 Y126.54 E11.50082
G1 X161.5 Y126.55 E11.52089
G1 X64.5 Y126.55 E16.36023
G1 X63.711 Y126.51 E16.39965
G1 X62.931 Y126.391 E16.43901
G1 X62.166 Y126.193 E16.47844
G1 X61.426 Y125.919 E16.51781
G1 X60.717 Y125.571 E16.55721
G1 X60.046 Y125.153 E16.59665
G1 X59.422 Y124.67 E16.63602
G1 X58.849 Y124.127 E16.6754
G1 X58.334 Y123.528 E16.71481
G1 X57.883 Y122.88 E16.7542
G1 X57.499 Y122.189 E16.79364
G1 X57.187 Y121.464 E16.83302
G1 X56.95 Y120.711 E16.8724
G1 X56.791 Y119.937 E16.91182
G1 X56.71 Y119.152 E16.95119
G1 X56.7 Y118.75 E16.97126
G1 X56.7 Y69.05 E19.4508
G1 X38.5 Y69.05 E20.3588
G1 X37.711 Y69.01 E20.39822
G1 X36.931 Y68.891 E20.43758
G1 X36.166 Y68.693 E20.477
G1 X35.426 Y68.419 E20.51637
G1 X34.717 Y68.071 E20.55578
G1 X34.046 Y67.653 E20.59522
G1 X33.422 Y67.17 E20.63458
G1 X32.849 Y66.627 E20.67397
G1 X32.334 Y66.028 E20.71338
G1 X31.883 Y65.38 E20.75277
G1 X31.499 Y64.689 E20.79221
G1 X31.187 Y63.964 E20.83158
G1 X30.95 Y63.211 E20.87097
G1 X30.791 Y62.437 E20.91039
G1 X30.71 Y61.652 E20.94976
G1 X30.7 Y61.25 E20.96982
G1 X30.7 Y41.25 E21.96763
G1 X30.74 Y40.461 E22.00704
G1 X30.859 Y39.681 E22.04641
G1 X31.057 Y38.916 E22.08583
G1 X31.331 Y38.176 E22.1252
G1 X31.679 Y37.467 E22.1646
G1 X32.097 Y36.796 E22.20404
G1 X32.58 Y36.172 E22.24341
G1 X33.123 Y35.599 E22.28279
G0 F6750 X33.516 Y35.78
G1 F1350 X34.111 Y35.292 E22.32119
G1 X34.753 Y34.869 E22.35954
G1 X35.436 Y34.514 E22.39795
G1 X36.151 Y34.233 E22.43627
G1 X36.893 Y34.027 E22.47469
G1 X37.651 Y33.899 E22.51304
G1 X38.5 Y33.85 E22.55547
G1 X161.5 Y33.85 E28.69197
G1 X162.268 Y33.89 E28.73033
G1 X163.028 Y34.009 E28.76871
G1 X163.771 Y34.207 E28.80707
G1 X164.49 Y34.481 E28.84546
G1 X165.176 Y34.828 E28.88382
G1 X165.823 Y35.244 E28.92219
G1 X166.423 Y35.725 E28.96056
G1 X166.97 Y36.266 E28.99894
G1 X167.458 Y36.861 E29.03733
G1 X167.881 Y37.503 E29.07569
G1 X168.236 Y38.186 E29.11409
G1 X168.517 Y38.901 E29.15242
G1 X168.723 Y39.643 E29.19084
G1 X168.851 Y40.401 E29.22919
G1 X168.9 Y41.25 E29.27162
G1 X168.9 Y118.75 E33.13811
G1 X168.86 Y119.518 E33.17648
G1 X168.741 Y120.278 E33.21485
G1 X168.543 Y121.021 E33.25322
G1 X168.269 Y121.74 E33.2916
G1 X167.922 Y122.426 E33.32996
G1 X167.506 Y123.073 E33.36833
G1 X167.025 Y123.673 E33.4067
G1 X166.484 Y124.22 E33.44508
G1 X165.889 Y124.708 E33.48347
G1 X165.247 Y125.131 E33.52183
G1 X164.564 Y125.486 E33.56023
G1 X163.849 Y125.767 E33.59856
G1 X163.107 Y125.973 E33.63698
G1 X162.349 Y126.101 E33.67533
G1 X161.5 Y126.15 E33.71776
G1 X64.5 Y126.15 E38.55711
G1 X63.732 Y126.11 E38.59548
G1 X62.972 Y125.991 E38.63385
G1 X62.229 Y125.793 E38.67222
G1 X61.51 Y125.519 E38.7106
G1 X60.824 Y125.172 E38.74896
G1 X60.177 Y124.756 E38.78733
G1 X59.577 Y124.275 E38.8257
G1 X59.03 Y123.734 E38.86408
G1 X58.542 Y123.139 E38.90247
G1 X58.119 Y122.497 E38.94083
G1 X57.764 Y121.814 E38.97923
G1 X57.483 Y121.099 E39.01756
G1 X57.277 Y120.357 E39.05598
G1 X57.149 Y119.599 E39.09433
G1 X57.1 Y118.75 E39.13676
G1 X57.1 Y68.65 E41.63626
G1 X38.5 Y68.65 E42.56422
G1 X37.732 Y68.61 E42.60258
G1 X36.972 Y68.491 E42.64096
G1 X36.229 Y68.293 E42.67932
G1 X35.51 Y68.019 E42.71771
G1 X34.824 Y67.672 E42.75606
G1 X34.177 Y67.256 E42.79444
G1 X33.577 Y66.775 E42.83281
G1 X33.03 Y66.234 E42.87119
G1 X32.542 Y65.639 E42.90958
G1 X32.119 Y64.997 E42.94794
G1 X31.764 Y64.314 E42.98634
G1 X31.483 Y63.599 E43.02467
G1 X31.277 Y62.857 E43.06309
G1 X31.149 Y62.099 E43.10144
G1 X31.1 Y61.25 E43.14387
G1 X31.1 Y41.25 E44.14167
G1 X31.14 Y40.482 E44.18004
G1 X31.259 Y39.722 E44.21842
G1 X31.457 Y38.979 E44.25678
G1 X31.731 Y38.26 E44.29517
G1 X32.078 Y37.574 E44.33352
G1 X32.494 Y36.927 E44.37189
G1 X32.975 Y36.327 E44.41026
G1 X33.516 Y35.78 E44.44864
G0 F6750 X33.908 Y35.966
G1 F1350 X34.498 Y35.507 E44.48594
G1 X35.134 Y35.112 E44.52329
G1 X35.808 Y34.788 E44.5606
G1 X36.513 Y34.538 E44.59792
G1 X37.241 Y34.364 E44.63526
G1 X37.983 Y34.269 E44.67258
G1 X38.5 Y34.25 E44.69839
G1 X161.5 Y34.25 E50.83489
G1 X162.247 Y34.29 E50.87221
G1 X162.985 Y34.409 E50.9095
G1 X163.707 Y34.607 E50.94685
G1 X164.403 Y34.88 E50.98415
G1 X165.066 Y35.227 E51.02149
G1 X165.689 Y35.642 E51.05883
G1 X166.263 Y36.121 E51.09613
G1 X166.784 Y36.658 E51.13346
G1 X167.243 Y37.248 E51.17075
G1 X167.638 Y37.884 E51.2081
G1 X167.962 Y38.558 E51.24541
G1 X168.212 Y39.263 E51.28273
G1 X168.386 Y39.991 E51.32007
G1 X168.481 Y40.733 E51.3574
G1 X168.5 Y41.25 E51.38321
G1 X168.5 Y118.75 E55.2497
G1 X168.46 Y119.497 E55.28702
G1 X168.341 Y120.235 E55.32431
G1 X168.143 Y120.957 E55.36166
G1 X167.87 Y121.653 E55.39896
G1 X167.523 Y122.316 E55.4363
G1 X167.108 Y122.939 E55.47364
G1 X166.629 Y123.513 E55.51094
G1 X166.092 Y124.034 E55.54827
G1 X165.502 Y124.493 E55.58556
G1 X164.866 Y124.888 E55.62291
G1 X164.192 Y125.212 E55.66022
G1 X163.487 Y125.462 E55.69754
G1 X162.759 Y125.636 E55.73489
G1 X162.017 Y125.731 E55.77221
G1 X161.5 Y125.75 E55.79802
G1 X64.5 Y125.75 E60.63737
G1 X63.753 Y125.71 E60.67469
G1 X63.015 Y125.591 E60.71198
G1 X62.293 Y125.393 E60.74933
G1 X61.597 Y125.12 E60.78663
G1 X60.934 Y124.773 E60.82397
G1 X60.311 Y124.358 E60.86131
G1 X59.737 Y123.879 E60.89861
G1 X59.216 Y123.342 E60.93594
G1 X58.757 Y122.752 E60.97323
G1 X58.362 Y122.116 E61.01058
G1 X58.038 Y121.442 E61.04789
G1 X57.788 Y120.737 E61.08521
G1 X57.614 Y120.009 E61.12256
G1 X57.519 Y119.267 E61.15988
G1 X57.5 Y118.75 E61.18569
G1 X57.5 Y68.25 E63.70514
G1 X38.5 Y68.25 E64.65306
G1 X37.753 Y68.21 E64.69038
G1 X37.015 Y68.091 E64.72767
G1 X36.293 Y67.893 E64.76502
G1 X35.597 Y67.62 E64.80232
G1 X34.934 Y67.273 E64.83966
G1 X34.311 Y66.858 E64.877
G1 X33.737 Y66.379 E64.9143
G1 X33.216 Y65.842 E64.95163
G1 X32.757 Y65.252 E64.98892
G1 X32.362 Y64.616 E65.02627
G1 X32.038 Y63.942 E65.06358
G1 X31.788 Y63.237 E65.1009
G1 X31.614 Y62.509 E65.13824
G1 X31.519 Y61.767 E65.17557
G1 X31.5 Y61.25 E65.20138
G1 X31.5 Y41.25 E66.19918
G1 X31.54 Y40.503 E66.2365
G1 X31.659 Y39.765 E66.2738
G1 X31.857 Y39.043 E66.31115
G1 X32.13 Y38.347 E66.34845
G1 X32.477 Y37.684 E66.38578
G1 X32.892 Y37.061 E66.42313
G1 X33.371 Y36.487 E66.46042
G1 X33.908 Y35.966 E66.49775
G0 F6750 X33.765 Y36.652
G1 F1350 X34.299 Y36.159 E66.53401
G1 X34.884 Y35.729 E66.57023
G1 X35.513 Y35.365 E66.60649
G1 X36.178 Y35.072 E66.64274
G1 X36.871 Y34.854 E66.67899
G1 X37.583 Y34.714 E66.71519
G1 X38.5 Y34.65 E66.76105
G1 X161.5 Y34.65 E72.89755
G1 X162.225 Y34.69 E72.93377
G1 X162.942 Y34.809 E72.97003
G1 X163.641 Y35.007 E73.00628
G1 X164.314 Y35.28 E73.04251
G1 X164.953 Y35.625 E73.07874
G1 X165.55 Y36.039 E73.11499
G1 X166.098 Y36.515 E73.1512
G1 X166.591 Y37.049 E73.18746
G1 X167.021 Y37.634 E73.22368
G1 X167.385 Y38.263 E73.25994
G1 X167.678 Y38.928 E73.29619
G1 X167.896 Y39.621 E73.33244
G1 X168.036 Y40.333 E73.36864
G1 X168.1 Y41.25 E73.4145
G1 X168.1 Y118.75 E77.28099
G1 X168.06 Y119.475 E77.31721
G1 X167.941 Y120.192 E77.35348
G1 X167.743 Y120.891 E77.38972
G1 X167.47 Y121.564 E77.42595
G1 X167.125 Y122.203 E77.46218
G1 X166.711 Y122.8 E77.49843
G1 X166.235 Y123.348 E77.53464
G1 X165.701 Y123.841 E77.5709
G1 X165.116 Y124.271 E77.60712
G1 X164.487 Y124.635 E77.64338
G1 X163.822 Y124.928 E77.67963
G1 X163.129 Y125.146 E77.71588
G1 X162.417 Y125.286 E77.75208
G1 X161.5 Y125.35 E77.79794
G1 X64.5 Y125.35 E82.63729
G1 X63.775 Y125.31 E82.67352
G1 X63.058 Y125.191 E82.70978
G1 X62.359 Y124.993 E82.74602
G1 X61.686 Y124.72 E82.78226
G1 X61.047 Y124.375 E82.81849
G1 X60.45 Y123.961 E82.85473
G1 X59.902 Y123.485 E82.89094
G1 X59.409 Y122.951 E82.9272
G1 X58.979 Y122.366 E82.96343
G1 X58.615 Y121.737 E82.99968
G1 X58.322 Y121.072 E83.03594
G1 X58.104 Y120.379 E83.07218
G1 X57.964 Y119.667 E83.10838
G1 X57.9 Y118.75 E83.15424
G1 X57.9 Y67.85 E85.69365
G1 X38.5 Y67.85 E86.66152
G1 X37.775 Y67.81 E86.69775
G1 X37.058 Y67.691 E86.73401
G1 X36.359 Y67.493 E86.77026
G1 X35.686 Y67.22 E86.80649
G1 X35.047 Y66.875 E86.84272
G1 X34.45 Y66.461 E86.87896
G1 X33.902 Y65.985 E86.91518
G1 X33.409 Y65.451 E86.95144
G1 X32.979 Y64.866 E86.98766
G1 X32.615 Y64.237 E87.02392
G1 X32.322 Y63.572 E87.06017
G1 X32.104 Y62.879 E87.09641
G1 X31.964 Y62.167 E87.13262
G1 X31.9 Y61.25 E87.17848
G1 X31.9 Y41.25 E88.17628
G1 X31.94 Y40.525 E88.21251
G1 X32.059 Y39.808 E88.24877
G1 X32.257 Y39.109 E88.28501
G1 X32.53 Y38.436 E88.32125
G1 X32.875 Y37.797 E88.35748
G1 X33.289 Y37.2 E88.39372
G1 X33.765 Y36.652 E88.42993
G0 F6750 X34.159 Y36.823
G1 F1350 X34.689 Y36.359 E88.46508
G1 X35.268 Y35.959 E88.50019
G1 X35.889 Y35.627 E88.53532
G1 X36.543 Y35.367 E88.57043
G1 X37.223 Y35.183 E88.60558
G1 X37.919 Y35.077 E88.6407
G1 X38.5 Y35.05 E88.66972
G1 X161.5 Y35.05 E94.80621
G1 X162.203 Y35.09 E94.84134
G1 X162.897 Y35.209 E94.87647
G1 X163.572 Y35.407 E94.91157
G1 X164.221 Y35.679 E94.94667
G1 X164.835 Y36.024 E94.98181
G1 X165.406 Y36.435 E95.01691
G1 X165.927 Y36.909 E95.05205
G1 X166.391 Y37.439 E95.08719
G1 X166.791 Y38.018 E95.1223
G1 X167.123 Y38.639 E95.15743
G1 X167.383 Y39.293 E95.19255
G1 X167.567 Y39.973 E95.22769
G1 X167.673 Y40.669 E95.26282
G1 X167.7 Y41.25 E95.29183
G1 X167.7 Y118.75 E99.15832
G1 X167.66 Y119.453 E99.19345
G1 X167.541 Y120.147 E99.22858
G1 X167.343 Y120.822 E99.26368
G1 X167.071 Y121.471 E99.29878
G1 X166.726 Y122.085 E99.33392
G1 X166.315 Y122.656 E99.36902
G1 X165.841 Y123.177 E99.40416
G1 X165.311 Y123.641 E99.43931
G1 X164.732 Y124.041 E99.47441
G1 X164.111 Y124.373 E99.50955
G1 X163.457 Y124.633 E99.54466
G1 X162.777 Y124.817 E99.5798
G1 X162.081 Y124.923 E99.61493
G1 X161.5 Y124.95 E99.64394
G1 X64.5 Y124.95 E104.48329
G1 X63.797 Y124.91 E104.51842
G1 X63.103 Y124.791 E104.55355
G1 X62.428 Y124.593 E104.58865
G1 X61.779 Y124.321 E104.62376
G1 X61.165 Y123.976 E104.65889
G1 X60.594 Y123.565 E104.69399
G1 X60.073 Y123.091 E104.72913
G1 X59.609 Y122.561 E104.76428
G1 X59.209 Y121.982 E104.79939
G1 X58.877 Y121.361 E104.83452
G1 X58.617 Y120.707 E104.86963
G1 X58.433 Y120.027 E104.90477
G1 X58.327 Y119.331 E104.9399
G1 X58.3 Y118.75 E104.96892
G1 X58.3 Y67.45 E107.52828
G1 X38.5 Y67.45 E108.51611
G1 X37.797 Y67.41 E108.55124
G1 X37.103 Y67.291 E108.58637
G1 X36.428 Y67.093 E108.62146
G1 X35.779 Y66.821 E108.65657
G1 X35.165 Y66.476 E108.69171
G1 X34.594 Y66.065 E108.72681
G1 X34.073 Y65.591 E108.76195
G1 X33.609 Y65.061 E108.79709
G1 X33.209 Y64.482 E108.8322
G1 X32.877 Y63.861 E108.86733
G1 X32.617 Y63.207 E108.90244
G1 X32.433 Y62.527 E108.93759
G1 X32.327 Y61.831 E108.97271
G1 X32.3 Y61.25 E109.00173
G1 X32.3 Y41.25 E109.99953
G1 X32.34 Y40.547 E110.03466
G1 X32.459 Y39.853 E110.06979
G1 X32.657 Y39.178 E110.10489
G1 X32.929 Y38.529 E110.13999
G1 X33.274 Y37.915 E110.17513
G1 X33.685 Y37.344 E110.21023
G1 X34.159 Y36.823 E110.24537
G0 F6750 X34.553 Y37.001
G1 F1350 X35.078 Y36.567 E110.27936
G1 X35.65 Y36.198 E110.31332
G1 X36.262 Y35.899 E110.3473
G1 X36.904 Y35.674 E110.38124
G1 X37.569 Y35.525 E110.41524
G1 X38.5 Y35.45 E110.46183
G1 X161.5 Y35.45 E116.59833
G1 X162.18 Y35.49 E116.63231
G1 X162.85 Y35.609 E116.66626
G1 X163.502 Y35.806 E116.70024
G1 X164.126 Y36.078 E116.7342
G1 X164.714 Y36.422 E116.76819
G1 X165.258 Y36.832 E116.80218
G1 X165.749 Y37.303 E116.83612
G1 X166.183 Y37.828 E116.8701
G1 X166.552 Y38.4 E116.90406
G1 X166.851 Y39.012 E116.93805
G1 X167.076 Y39.654 E116.97199
G1 X167.225 Y40.319 E117.00599
G1 X167.3 Y41.25 E117.05258
G1 X167.3 Y118.75 E120.91907
G1 X167.26 Y119.43 E120.95306
G1 X167.141 Y120.1 E120.98701
G1 X166.944 Y120.752 E121.02099
G1 X166.672 Y121.376 E121.05495
G1 X166.328 Y121.964 E121.08894
G1 X165.918 Y122.508 E121.12292
G1 X165.447 Y122.999 E121.15687
G1 X164.922 Y123.433 E121.19085
G1 X164.35 Y123.802 E121.22481
G1 X163.738 Y124.101 E121.25879
G1 X163.096 Y124.326 E121.29273
G1 X162.431 Y124.475 E121.32673
G1 X161.5 Y124.55 E121.37333
G1 X64.5 Y124.55 E126.21268
G1 X63.82 Y124.51 E126.24666
G1 X63.15 Y124.391 E126.28061
G1 X62.498 Y124.194 E126.31459
G1 X61.874 Y123.922 E126.34855
G1 X61.286 Y123.578 E126.38254
G1 X60.742 Y123.168 E126.41653
G1 X60.251 Y122.697 E126.45047
G1 X59.817 Y122.172 E126.48445
G1 X59.448 Y121.6 E126.51841
G1 X59.149 Y120.988 E126.5524
G1 X58.924 Y120.346 E126.58633
G1 X58.775 Y119.681 E126.62033
G1 X58.7 Y118.75 E126.66693
G1 X58.7 Y67.05 E129.24626
G1 X38.5 Y67.05 E130.25404
G1 X37.82 Y67.01 E130.28802
G1 X37.15 Y66.891 E130.32197
G1 X36.498 Y66.694 E130.35595
G1 X35.874 Y66.422 E130.38991
G1 X35.286 Y66.078 E130.4239
G1 X34.742 Y65.668 E130.45789
G1 X34.251 Y65.197 E130.49183
G1 X33.817 Y64.672 E130.52581
G1 X33.448 Y64.1 E130.55977
G1 X33.149 Y63.488 E130.59376
G1 X32.924 Y62.846 E130.62769
G1 X32.775 Y62.181 E130.66169
G1 X32.7 Y61.25 E130.70829
G1 X32.7 Y41.25 E131.7061
G1 X32.74 Y40.57 E131.74008
G1 X32.859 Y39.9 E131.77403
G1 X33.056 Y39.248 E131.80801
G1 X33.328 Y38.624 E131.84197
G1 X33.672 Y38.036 E131.87596
G1 X34.082 Y37.492 E131.90994
G1 X34.553 Y37.001 E131.94389
G0 F6750 X34.945 Y37.185
G1 F1350 X35.465 Y36.784 E131.97665
G1 X36.029 Y36.448 E132.0094
G1 X36.631 Y36.184 E132.0422
G1 X37.26 Y35.994 E132.07498
G1 X37.907 Y35.883 E132.10773
G1 X38.5 Y35.85 E132.13736
G1 X161.5 Y35.85 E138.27385
G1 X162.156 Y35.89 E138.30664
G1 X162.802 Y36.009 E138.33941
G1 X163.429 Y36.206 E138.3722
G1 X164.027 Y36.478 E138.40498
G1 X164.588 Y36.82 E138.43776
G1 X165.103 Y37.228 E138.47054
G1 X165.565 Y37.695 E138.50331
G1 X165.966 Y38.215 E138.53607
G1 X166.302 Y38.779 E138.56882
G1 X166.566 Y39.381 E138.60162
G1 X166.756 Y40.01 E138.6344
G1 X166.867 Y40.657 E138.66715
G1 X166.9 Y41.25 E138.69678
G1 X166.9 Y118.75 E142.56327
G1 X166.86 Y119.406 E142.59606
G1 X166.741 Y120.052 E142.62883
G1 X166.544 Y120.679 E142.66162
G1 X166.272 Y121.277 E142.6944
G1 X165.93 Y121.838 E142.72718
G1 X165.522 Y122.353 E142.75996
G1 X165.055 Y122.815 E142.79273
G1 X164.535 Y123.216 E142.82549
G1 X163.971 Y123.552 E142.85824
G1 X163.369 Y123.816 E142.89104
G1 X162.74 Y124.006 E142.92382
G1 X162.093 Y124.117 E142.95657
G1 X161.5 Y124.15 E142.9862
G1 X64.5 Y124.15 E147.82555
G1 X63.844 Y124.11 E147.85834
G1 X63.198 Y123.991 E147.89111
G1 X62.571 Y123.794 E147.9239
G1 X61.973 Y123.522 E147.95667
G1 X61.412 Y123.18 E147.98945
G1 X60.897 Y122.772 E148.02223
G1 X60.435 Y122.305 E148.05501
G1 X60.034 Y121.785 E148.08777
G1 X59.698 Y121.221 E148.12052
G1 X59.434 Y120.619 E148.15332
G1 X59.244 Y119.99 E148.1861
G1 X59.133 Y119.343 E148.21885
G1 X59.1 Y118.75 E148.24848
G1 X59.1 Y66.65 E150.84776
G1 X38.5 Y66.65 E151.8755
G1 X37.844 Y66.61 E151.90828
G1 X37.198 Y66.491 E151.94106
G1 X36.571 Y66.294 E151.97384
G1 X35.973 Y66.022 E152.00662
