;FLAVOR:Marlin
;TIME:190
;Filament used: 0.10397m
;Layer height: 0.15
;MINX:89.21
;MINY:89.206
;MINZ:0.3
;MAXX:110.79
;MAXY:110.794
;MAXZ:6.9
;Generated with Cura_SteamEngine 4.5.0
M140 S60
M105
M190 S60
M104 S220
M105
M109 S220
M82 ;absolute extrusion mode
G21 ;valeurs métriques
G90 ;positionnement absolu
M82 ;mettre l'extrudeuse en mode absolu
M107 ;commencez avec le ventilateur éteint
G28 X0 Y0 ;déplacer X / Y à des butées min
G28 Z0 ;déplacez Z en butées min
G29
G0 X0 Y15 F9000 ;Lit en avant
G0 Z0.15 ;Déposer au lit
G92 E0 ;zéro la longueur extrudée
G1 X60 E10 F500 ;Extruder 10 mm de filament sur 4 cm
G92 E0 ;zéro la longueur extrudée
G1 E-1 F500 ;Rétracter un peu
G1 X100 F4000 ;Essuye rapidement la ligne de filament
G1 Z0.3 ;Levez et commencez à imprimer.
G92 E0
G92 E0
G1 F1500 E-6.5
;LAYER_COUNT:45
;LAYER:0
M107
M204 S1000
G0 F8250 X92.126 Y92.615 Z0.3
;TYPE:SKIRT
G1 F1500 E0
G1 F1650 X92.69 Y92.063 E0.03937
G1 X93.054 Y91.76 E0.063
G1 X93.686 Y91.266 E0.10302
G1 X94.332 Y90.811 E0.14244
G1 X95.021 Y90.425 E0.18184
G1 X95.467 Y90.221 E0.20631
G1 X96.19 Y89.917 E0.24544
G1 X96.932 Y89.648 E0.28482
G1 X97.698 Y89.456 E0.32421
G1 X98.156 Y89.379 E0.34738
G1 X98.931 Y89.273 E0.38641
G1 X99.718 Y89.206 E0.42582
G1 X100.507 Y89.218 E0.46518
G1 X100.963 Y89.262 E0.48804
G1 X101.733 Y89.359 E0.52676
G1 X102.51 Y89.497 E0.56613
G1 X103.27 Y89.714 E0.60556
G1 X103.716 Y89.881 E0.62932
G1 X104.448 Y90.181 E0.66879
G1 X105.163 Y90.517 E0.7082
G1 X105.84 Y90.923 E0.74759
G1 X106.221 Y91.197 E0.771
G1 X106.841 Y91.67 E0.80991
G1 X107.444 Y92.18 E0.84931
G1 X107.992 Y92.748 E0.88868
G1 X108.276 Y93.094 E0.91101
G1 X108.747 Y93.702 E0.94938
G1 X109.199 Y94.35 E0.9888
G1 X109.582 Y95.04 E1.02817
G1 X109.756 Y95.42 E1.04902
G1 X110.06 Y96.133 E1.08769
G1 X110.333 Y96.874 E1.12709
G1 X110.529 Y97.639 E1.16649
G1 X110.607 Y98.09 E1.18933
G1 X110.718 Y98.868 E1.22853
G1 X110.79 Y99.655 E1.26796
G1 X110.782 Y100.444 E1.30733
G1 X110.741 Y100.893 E1.32982
G1 X110.649 Y101.665 E1.36861
G1 X110.516 Y102.443 E1.40799
G1 X110.305 Y103.204 E1.44738
G1 X110.137 Y103.661 E1.47168
G1 X109.842 Y104.392 E1.511
G1 X109.51 Y105.108 E1.55038
G1 X109.107 Y105.788 E1.58981
G1 X108.847 Y106.156 E1.61229
G1 X108.38 Y106.778 E1.6511
G1 X107.874 Y107.385 E1.69052
G1 X107.31 Y107.937 E1.7299
G1 X106.946 Y108.24 E1.75352
G1 X106.314 Y108.734 E1.79354
G1 X105.668 Y109.189 E1.83296
G1 X104.979 Y109.575 E1.87237
G1 X104.533 Y109.779 E1.89683
G1 X103.81 Y110.083 E1.93596
G1 X103.068 Y110.352 E1.97534
G1 X102.302 Y110.544 E2.01474
G1 X101.844 Y110.621 E2.03791
G1 X101.069 Y110.727 E2.07693
G1 X100.282 Y110.794 E2.11634
G1 X99.493 Y110.782 E2.15571
G1 X99.037 Y110.738 E2.17856
G1 X98.267 Y110.641 E2.21728
G1 X97.49 Y110.503 E2.25665
G1 X96.73 Y110.286 E2.29608
G1 X96.284 Y110.119 E2.31984
G1 X95.552 Y109.819 E2.35931
G1 X94.837 Y109.483 E2.39873
G1 X94.16 Y109.077 E2.43811
G1 X93.779 Y108.803 E2.46152
G1 X93.159 Y108.33 E2.50043
G1 X92.556 Y107.82 E2.53983
G1 X92.008 Y107.252 E2.57921
G1 X91.724 Y106.906 E2.60154
G1 X91.253 Y106.298 E2.63991
G1 X90.801 Y105.65 E2.67932
G1 X90.418 Y104.96 E2.7187
G1 X90.244 Y104.58 E2.73955
G1 X89.94 Y103.867 E2.77822
G1 X89.667 Y103.126 E2.81762
G1 X89.471 Y102.361 E2.85701
G1 X89.393 Y101.908 E2.87995
G1 X89.282 Y101.129 E2.9192
G1 X89.21 Y100.343 E2.95858
G1 X89.219 Y99.553 E2.998
G1 X89.259 Y99.105 E3.02044
G1 X89.351 Y98.334 E3.05918
G1 X89.484 Y97.555 E3.0986
G1 X89.695 Y96.795 E3.13795
G1 X89.863 Y96.339 E3.1622
G1 X90.158 Y95.608 E3.20153
G1 X90.49 Y94.892 E3.2409
G1 X90.893 Y94.212 E3.28034
G1 X91.153 Y93.844 E3.30282
G1 X91.62 Y93.222 E3.34162
G1 X92.126 Y92.615 E3.38105
G0 F8250 X92.433 Y92.872
G1 F1650 X92.985 Y92.336 E3.41943
G1 X93.301 Y92.075 E3.43988
G1 X93.933 Y91.581 E3.4799
G1 X94.563 Y91.139 E3.51829
G1 X95.235 Y90.765 E3.55666
G1 X95.622 Y90.589 E3.57787
G1 X96.345 Y90.285 E3.617
G1 X97.068 Y90.025 E3.65534
G1 X97.815 Y89.84 E3.69373
G1 X98.21 Y89.775 E3.7137
G1 X98.985 Y89.669 E3.75273
G1 X99.752 Y89.605 E3.79112
G1 X100.521 Y89.62 E3.8295
G1 X100.913 Y89.659 E3.84915
G1 X101.683 Y89.756 E3.88787
G1 X102.44 Y89.892 E3.92624
G1 X103.179 Y90.105 E3.96461
G1 X103.564 Y90.251 E3.98515
G1 X104.296 Y90.551 E4.02462
G1 X104.992 Y90.879 E4.06301
G1 X105.65 Y91.278 E4.1014
G1 X105.978 Y91.515 E4.12159
G1 X106.598 Y91.988 E4.16049
G1 X107.185 Y92.485 E4.19887
G1 X107.716 Y93.041 E4.23722
G1 X107.96 Y93.339 E4.25644
G1 X108.431 Y93.947 E4.29481
G1 X108.87 Y94.579 E4.3332
G1 X109.388 Y95.577 E4.3893
G1 X109.692 Y96.29 E4.42797
G1 X109.957 Y97.012 E4.46634
G1 X110.145 Y97.758 E4.50472
G1 X110.211 Y98.147 E4.5244
G1 X110.322 Y98.925 E4.56361
G1 X110.391 Y99.691 E4.60198
G1 X110.38 Y100.46 E4.64035
G1 X110.344 Y100.846 E4.65969
G1 X110.252 Y101.618 E4.69848
G1 X110.121 Y102.376 E4.73686
G1 X109.913 Y103.116 E4.77521
G1 X109.766 Y103.511 E4.79623
G1 X109.471 Y104.242 E4.83556
G1 X109.147 Y104.94 E4.87395
G1 X108.752 Y105.6 E4.91233
G1 X108.527 Y105.916 E4.93168
G1 X108.06 Y106.538 E4.97049
G1 X107.567 Y107.128 E5.00884
G1 X107.015 Y107.664 E5.04723
G1 X106.699 Y107.925 E5.06768
G1 X106.067 Y108.419 E5.1077
G1 X105.437 Y108.861 E5.14609
G1 X104.765 Y109.235 E5.18446
G1 X104.378 Y109.411 E5.20567
G1 X103.655 Y109.715 E5.2448
G1 X102.932 Y109.975 E5.28313
G1 X102.185 Y110.16 E5.32153
G1 X101.79 Y110.225 E5.3415
G1 X101.015 Y110.331 E5.38052
G1 X100.248 Y110.395 E5.41892
G1 X99.479 Y110.38 E5.4573
G1 X99.087 Y110.341 E5.47695
G1 X98.317 Y110.244 E5.51567
G1 X97.56 Y110.108 E5.55404
G1 X96.821 Y109.895 E5.59241
G1 X96.436 Y109.749 E5.61295
G1 X95.704 Y109.449 E5.65242
G1 X95.008 Y109.121 E5.69081
G1 X94.35 Y108.722 E5.7292
G1 X94.022 Y108.485 E5.74939
G1 X93.402 Y108.012 E5.78829
G1 X92.815 Y107.515 E5.82667
G1 X92.284 Y106.959 E5.86502
G1 X92.04 Y106.661 E5.88424
G1 X91.569 Y106.053 E5.92261
G1 X91.13 Y105.421 E5.961
G1 X90.612 Y104.423 E6.0171
G1 X90.308 Y103.71 E6.05577
G1 X90.043 Y102.988 E6.09414
G1 X89.855 Y102.242 E6.13252
G1 X89.789 Y101.852 E6.15225
G1 X89.678 Y101.073 E6.19151
G1 X89.609 Y100.307 E6.22988
G1 X89.62 Y99.538 E6.26825
G1 X89.656 Y99.152 E6.28759
G1 X89.748 Y98.381 E6.32633
G1 X89.879 Y97.623 E6.36471
G1 X90.088 Y96.883 E6.40307
G1 X90.234 Y96.489 E6.42403
G1 X90.529 Y95.758 E6.46336
G1 X90.853 Y95.06 E6.50175
G1 X91.248 Y94.4 E6.54013
G1 X91.473 Y94.084 E6.55948
G1 X91.94 Y93.462 E6.59828
G1 X92.433 Y92.872 E6.63664
G0 F8250 X92.741 Y93.129
G1 F1650 X93.547 Y92.39 E6.6912
G1 X94.179 Y91.896 E6.73122
G1 X94.792 Y91.467 E6.76855
G1 X95.777 Y90.958 E6.82386
G1 X96.5 Y90.654 E6.86299
G1 X97.204 Y90.402 E6.9003
G1 X98.264 Y90.172 E6.95441
G1 X99.039 Y90.066 E6.99343
G1 X99.785 Y90.004 E7.03078
G1 X100.863 Y90.056 E7.08463
G1 X101.633 Y90.153 E7.12334
G1 X102.369 Y90.286 E7.16066
G1 X103.413 Y90.621 E7.21536
G1 X104.145 Y90.921 E7.25483
G1 X104.821 Y91.241 E7.29214
G1 X105.736 Y91.833 E7.34651
G1 X106.356 Y92.306 E7.38542
G1 X106.925 Y92.791 E7.42272
G1 X107.644 Y93.584 E7.47612
G1 X108.115 Y94.192 E7.51449
G1 X108.541 Y94.807 E7.55182
G1 X109.02 Y95.734 E7.60387
G1 X109.324 Y96.447 E7.64254
G1 X109.58 Y97.149 E7.67982
G1 X109.815 Y98.203 E7.7337
G1 X109.926 Y98.981 E7.77291
G1 X109.992 Y99.726 E7.81022
G1 X109.947 Y100.798 E7.86375
G1 X109.855 Y101.57 E7.90254
G1 X109.727 Y102.307 E7.93986
G1 X109.395 Y103.362 E7.99504
G1 X109.1 Y104.093 E8.03436
G1 X108.784 Y104.77 E8.07164
G1 X108.207 Y105.676 E8.12523
G1 X107.74 Y106.298 E8.16403
G1 X107.259 Y106.871 E8.20135
G1 X106.453 Y107.61 E8.25591
G1 X105.821 Y108.104 E8.29593
G1 X105.208 Y108.533 E8.33326
G1 X104.223 Y109.042 E8.38857
G1 X103.5 Y109.346 E8.4277
G1 X102.796 Y109.598 E8.46501
G1 X101.736 Y109.828 E8.51912
G1 X100.961 Y109.934 E8.55815
G1 X100.215 Y109.996 E8.59549
G1 X99.137 Y109.944 E8.64934
G1 X98.367 Y109.847 E8.68806
G1 X97.631 Y109.714 E8.72537
G1 X96.587 Y109.379 E8.78007
G1 X95.855 Y109.079 E8.81954
G1 X95.179 Y108.759 E8.85685
G1 X94.264 Y108.167 E8.91122
G1 X93.644 Y107.694 E8.95013
G1 X93.075 Y107.209 E8.98743
G1 X92.356 Y106.416 E9.04083
G1 X91.885 Y105.808 E9.0792
G1 X91.459 Y105.193 E9.11653
G1 X90.98 Y104.266 E9.16859
G1 X90.676 Y103.553 E9.20726
G1 X90.42 Y102.851 E9.24453
G1 X90.185 Y101.795 E9.29851
G1 X90.074 Y101.016 E9.33776
G1 X90.008 Y100.271 E9.37508
G1 X90.053 Y99.2 E9.42856
G1 X90.145 Y98.429 E9.4673
G1 X90.274 Y97.692 E9.50462
G1 X90.605 Y96.638 E9.55974
G1 X90.9 Y95.907 E9.59907
G1 X91.216 Y95.23 E9.63634
G1 X91.793 Y94.324 E9.68993
G1 X92.26 Y93.702 E9.72873
G1 X92.741 Y93.129 E9.76606
G0 F8250 X93.047 Y93.386
G1 F1650 X93.793 Y92.705 E9.81645
G1 X94.425 Y92.211 E9.85647
G1 X95.022 Y91.796 E9.89275
G1 X95.932 Y91.327 E9.94382
G1 X96.655 Y91.023 E9.98295
G1 X97.339 Y90.779 E10.01918
G1 X98.319 Y90.568 E10.06919
G1 X99.094 Y90.462 E10.10822
G1 X99.818 Y90.403 E10.14446
G1 X100.813 Y90.453 E10.19416
G1 X101.583 Y90.55 E10.23288
G1 X102.297 Y90.68 E10.26909
G1 X103.261 Y90.991 E10.31962
G1 X103.993 Y91.291 E10.35909
G1 X104.649 Y91.603 E10.39533
G1 X105.493 Y92.151 E10.44554
G1 X106.113 Y92.624 E10.48444
G1 X106.666 Y93.095 E10.52068
G1 X107.328 Y93.829 E10.57
G1 X107.799 Y94.437 E10.60837
G1 X108.211 Y95.035 E10.6446
G1 X108.652 Y95.89 E10.69259
G1 X108.956 Y96.603 E10.73126
G1 X109.204 Y97.286 E10.76751
G1 X109.419 Y98.26 E10.81728
G1 X109.53 Y99.038 E10.85648
G1 X109.593 Y99.761 E10.89269
G1 X109.55 Y100.751 E10.94213
G1 X109.458 Y101.523 E10.98092
G1 X109.332 Y102.238 E11.01714
G1 X109.024 Y103.212 E11.0681
G1 X108.729 Y103.943 E11.10743
G1 X108.421 Y104.601 E11.14368
G1 X107.887 Y105.436 E11.19313
G1 X107.42 Y106.058 E11.23193
G1 X106.953 Y106.614 E11.26816
G1 X106.207 Y107.295 E11.31855
G1 X105.575 Y107.789 E11.35857
G1 X104.978 Y108.204 E11.39484
G1 X104.068 Y108.673 E11.44592
G1 X103.345 Y108.977 E11.48505
G1 X102.661 Y109.221 E11.52128
G1 X101.681 Y109.432 E11.57129
G1 X100.906 Y109.538 E11.61032
G1 X100.182 Y109.597 E11.64656
G1 X99.187 Y109.547 E11.69626
G1 X98.417 Y109.45 E11.73498
G1 X97.703 Y109.32 E11.77119
G1 X96.739 Y109.009 E11.82172
G1 X96.007 Y108.709 E11.86119
G1 X95.351 Y108.397 E11.89743
G1 X94.507 Y107.849 E11.94763
G1 X93.887 Y107.376 E11.98654
G1 X93.334 Y106.905 E12.02278
G1 X92.672 Y106.171 E12.07209
G1 X92.201 Y105.563 E12.11046
G1 X91.789 Y104.965 E12.14669
G1 X91.348 Y104.11 E12.19469
G1 X91.044 Y103.397 E12.23336
G1 X90.796 Y102.714 E12.26961
G1 X90.581 Y101.739 E12.31942
G1 X90.47 Y100.96 E12.35868
G1 X90.407 Y100.236 E12.39494
G1 X90.45 Y99.247 E12.44432
G1 X90.542 Y98.476 E12.48306
G1 X90.668 Y97.761 E12.51928
G1 X90.976 Y96.788 E12.5702
G1 X91.271 Y96.057 E12.60953
G1 X91.579 Y95.399 E12.64577
G1 X92.113 Y94.564 E12.69522
G1 X92.58 Y93.942 E12.73403
G1 X93.047 Y93.386 E12.77025
G0 F8250 X93.354 Y93.644
G1 F1650 X94.04 Y93.02 E12.81652
G1 X94.672 Y92.526 E12.85654
G1 X95.25 Y92.125 E12.89164
G1 X96.087 Y91.696 E12.93856
G1 X96.81 Y91.392 E12.97769
G1 X97.473 Y91.156 E13.0128
G1 X98.373 Y90.964 E13.05871
G1 X99.148 Y90.858 E13.09774
G1 X99.85 Y90.803 E13.13287
G1 X100.763 Y90.85 E13.17848
G1 X101.533 Y90.947 E13.21719
G1 X102.225 Y91.074 E13.2523
G1 X103.109 Y91.361 E13.29866
G1 X103.841 Y91.661 E13.33813
G1 X104.476 Y91.965 E13.37326
G1 X105.251 Y92.469 E13.41938
G1 X105.871 Y92.942 E13.45828
G1 X106.405 Y93.4 E13.49338
G1 X107.011 Y94.074 E13.5386
G1 X107.482 Y94.682 E13.57697
G1 X107.881 Y95.262 E13.61209
G1 X108.284 Y96.047 E13.65612
G1 X108.588 Y96.76 E13.69479
G1 X108.827 Y97.423 E13.72995
G1 X109.023 Y98.316 E13.77556
G1 X109.134 Y99.094 E13.81477
G1 X109.194 Y99.796 E13.84992
G1 X109.152 Y100.704 E13.89527
G1 X109.06 Y101.476 E13.93405
G1 X108.938 Y102.169 E13.96916
G1 X108.653 Y103.062 E14.01593
G1 X108.358 Y103.793 E14.05525
G1 X108.058 Y104.43 E14.09038
G1 X107.567 Y105.196 E14.13577
G1 X107.1 Y105.818 E14.17458
G1 X106.646 Y106.356 E14.2097
G1 X105.96 Y106.98 E14.25596
G1 X105.328 Y107.474 E14.29598
G1 X104.75 Y107.875 E14.33108
G1 X103.913 Y108.304 E14.37801
G1 X103.19 Y108.608 E14.41713
G1 X102.527 Y108.844 E14.45224
G1 X101.627 Y109.036 E14.49816
G1 X100.852 Y109.142 E14.53718
G1 X100.15 Y109.197 E14.57231
G1 X99.237 Y109.15 E14.61792
G1 X98.467 Y109.053 E14.65664
G1 X97.775 Y108.926 E14.69174
G1 X96.891 Y108.639 E14.73811
G1 X96.159 Y108.339 E14.77758
G1 X95.524 Y108.035 E14.8127
G1 X94.749 Y107.531 E14.85882
G1 X94.129 Y107.058 E14.89773
G1 X93.595 Y106.6 E14.93283
G1 X92.989 Y105.926 E14.97805
G1 X92.518 Y105.318 E15.01642
G1 X92.119 Y104.738 E15.05154
G1 X91.716 Y103.953 E15.09556
G1 X91.412 Y103.24 E15.13423
G1 X91.173 Y102.577 E15.16939
G1 X90.977 Y101.683 E15.21505
G1 X90.866 Y100.904 E15.25431
G1 X90.806 Y100.202 E15.28946
G1 X90.848 Y99.294 E15.33481
G1 X90.94 Y98.523 E15.37355
G1 X91.063 Y97.83 E15.40866
G1 X91.347 Y96.938 E15.45537
G1 X91.642 Y96.207 E15.49469
G1 X91.942 Y95.57 E15.52982
G1 X92.433 Y94.804 E15.57521
G1 X92.9 Y94.182 E15.61402
G1 X93.354 Y93.644 E15.64914
G0 F8250 X93.66 Y93.903
G1 F1650 X94.286 Y93.335 E15.69131
G1 X94.918 Y92.841 E15.73133
G1 X95.478 Y92.454 E15.76529
G1 X96.242 Y92.064 E15.80809
G1 X96.965 Y91.76 E15.84722
G1 X97.607 Y91.534 E15.88117
G1 X98.427 Y91.361 E15.92298
G1 X99.202 Y91.255 E15.96201
G1 X99.881 Y91.202 E15.99599
G1 X100.713 Y91.246 E16.03755
G1 X101.483 Y91.343 E16.07627
G1 X102.152 Y91.468 E16.11023
G1 X102.957 Y91.731 E16.15248
G1 X103.689 Y92.031 E16.19194
G1 X104.303 Y92.326 E16.22593
G1 X105.008 Y92.787 E16.26795
G1 X105.628 Y93.26 E16.30686
G1 X106.144 Y93.704 E16.34082
G1 X106.695 Y94.319 E16.38202
G1 X107.166 Y94.927 E16.42039
G1 X107.551 Y95.489 E16.45437
G1 X107.916 Y96.204 E16.49442
G1 X108.22 Y96.917 E16.53309
G1 X108.45 Y97.558 E16.56707
G1 X108.627 Y98.373 E16.60868
G1 X108.738 Y99.151 E16.64789
G1 X108.794 Y99.829 E16.68183
G1 X108.755 Y100.656 E16.72313
G1 X108.663 Y101.428 E16.76192
G1 X108.543 Y102.099 E16.79593
G1 X108.283 Y102.913 E16.83856
G1 X107.988 Y103.644 E16.87789
G1 X107.696 Y104.259 E16.91185
G1 X107.247 Y104.955 E16.95317
G1 X106.78 Y105.577 E16.99198
G1 X106.34 Y106.097 E17.02596
G1 X105.714 Y106.665 E17.06813
G1 X105.082 Y107.159 E17.10815
G1 X104.522 Y107.546 E17.14212
G1 X103.758 Y107.936 E17.18491
G1 X103.035 Y108.24 E17.22404
G1 X102.393 Y108.466 E17.258
G1 X101.573 Y108.639 E17.29981
G1 X100.798 Y108.745 E17.33883
G1 X100.119 Y108.798 E17.37281
G1 X99.287 Y108.754 E17.41438
G1 X98.517 Y108.657 E17.4531
G1 X97.848 Y108.532 E17.48705
G1 X97.043 Y108.269 E17.5293
G1 X96.311 Y107.969 E17.56877
G1 X95.697 Y107.674 E17.60275
G1 X94.992 Y107.213 E17.64478
G1 X94.372 Y106.74 E17.68368
G1 X93.856 Y106.296 E17.71764
G1 X93.305 Y105.681 E17.75884
G1 X92.834 Y105.073 E17.79721
G1 X92.449 Y104.511 E17.8312
G1 X92.084 Y103.796 E17.87125
G1 X91.78 Y103.083 E17.90992
G1 X91.55 Y102.442 E17.94389
G1 X91.373 Y101.626 E17.98555
G1 X91.262 Y100.847 E18.02481
G1 X91.206 Y100.169 E18.05875
G1 X91.245 Y99.342 E18.10005
G1 X91.337 Y98.571 E18.13879
G1 X91.457 Y97.901 E18.17275
G1 X91.717 Y97.087 E18.21538
G1 X92.012 Y96.356 E18.25471
G1 X92.304 Y95.741 E18.28868
G1 X92.753 Y95.045 E18.33
G1 X93.22 Y94.423 E18.3688
G1 X93.66 Y93.903 E18.40279
G0 F8250 X93.965 Y94.162
G1 F1650 X94.532 Y93.65 E18.4409
G1 X95.164 Y93.156 E18.48092
G1 X95.706 Y92.784 E18.51372
G1 X96.397 Y92.433 E18.55238
G1 X97.12 Y92.129 E18.59151
G1 X97.74 Y91.912 E18.62428
G1 X98.481 Y91.757 E18.66205
G1 X99.256 Y91.651 E18.70108
G1 X99.911 Y91.602 E18.73385
G1 X100.663 Y91.643 E18.77142
G1 X101.433 Y91.74 E18.81014
G1 X102.079 Y91.862 E18.84294
G1 X102.806 Y92.101 E18.88112
G1 X103.538 Y92.401 E18.92059
G1 X104.129 Y92.687 E18.95334
G1 X104.765 Y93.105 E18.99131
G1 X105.385 Y93.578 E19.03022
G1 X105.882 Y94.007 E19.06297
G1 X106.379 Y94.564 E19.10022
G1 X106.85 Y95.172 E19.13859
G1 X107.22 Y95.715 E19.17137
G1 X107.548 Y96.361 E19.20751
G1 X107.852 Y97.074 E19.24618
G1 X108.073 Y97.693 E19.27897
G1 X108.231 Y98.429 E19.31653
G1 X108.342 Y99.207 E19.35574
G1 X108.395 Y99.862 E19.38852
G1 X108.358 Y100.609 E19.42584
G1 X108.266 Y101.381 E19.46462
G1 X108.149 Y102.027 E19.49738
G1 X107.912 Y102.763 E19.53595
G1 X107.617 Y103.494 E19.57528
G1 X107.334 Y104.087 E19.60806
G1 X106.927 Y104.715 E19.6454
