;FLAVOR:Marlin
;TIME:5829
;Filament used: 3.71387m
;Layer height: 0.15
;MINX:39.7
;MINY:39.7
;MINZ:0.3
;MAXX:160.3
;MAXY:160.3
;MAXZ:49.95
;Generated with Cura_SteamEngine 4.5.0
M140 S60
M105
M190 S60
M104 S220
M105
M109 S220
M82 ;absolute extrusion mode
G28
G1 Z5 F5000
G92 E0
G92 E0
G1 F1500 E-6.5
;LAYER_COUNT:332
;LAYER:0
M107
M204 S1000
G0 F6750 X46.985 Y47.102 Z0.3
;TYPE:SKIRT
G1 F1500 E0
G1 F1350 X47.102 Y46.985 E0.00825
G1 X47.688 Y46.455 E0.04767
G1 X48.324 Y45.988 E0.08704
G1 X49.004 Y45.587 E0.12642
G1 X49.722 Y45.257 E0.16585
G1 X50.469 Y45.002 E0.20523
G1 X51.238 Y44.823 E0.24462
G1 X52.022 Y44.723 E0.28405
G1 X52.617 Y44.7 E0.31376
G1 X135.273 Y44.7 E4.43748
G1 X135.331 Y44.543 E4.44583
G1 X135.679 Y43.834 E4.48523
G1 X136.097 Y43.163 E4.52468
G1 X136.58 Y42.539 E4.56404
G1 X136.985 Y42.102 E4.59377
G1 X137.102 Y41.985 E4.60202
G1 X137.688 Y41.455 E4.64144
G1 X138.324 Y40.988 E4.68081
G1 X139.004 Y40.587 E4.72019
G1 X139.722 Y40.257 E4.75962
G1 X140.469 Y40.002 E4.799
G1 X141.238 Y39.823 E4.83839
G1 X142.022 Y39.723 E4.87782
G1 X142.617 Y39.7 E4.90753
G1 X152.383 Y39.7 E5.39475
G1 X153.172 Y39.74 E5.43417
G1 X153.952 Y39.859 E5.47353
G1 X154.717 Y40.057 E5.51295
G1 X155.457 Y40.331 E5.55232
G1 X156.166 Y40.679 E5.59173
G1 X156.837 Y41.097 E5.63117
G1 X157.461 Y41.58 E5.67054
G1 X158.034 Y42.123 E5.70992
G1 X158.549 Y42.722 E5.74933
G1 X159 Y43.37 E5.78872
G1 X159.384 Y44.061 E5.82816
G1 X159.696 Y44.786 E5.86754
G1 X159.933 Y45.539 E5.90692
G1 X160.092 Y46.313 E5.94634
G1 X160.183 Y47.454 E6.00345
G1 X160.3 Y67.337 E6.99543
G1 X160.265 Y68.126 E7.03483
G1 X160.15 Y68.907 E7.07422
G1 X159.956 Y69.673 E7.11364
G1 X159.687 Y70.415 E7.15302
G1 X159.343 Y71.126 E7.19242
G1 X158.93 Y71.799 E7.23182
G1 X158.45 Y72.426 E7.27121
G1 X158.015 Y72.898 E7.30323
G1 X157.898 Y73.015 E7.31149
G1 X157.312 Y73.545 E7.35091
G1 X156.676 Y74.012 E7.39027
G1 X155.996 Y74.413 E7.42966
G1 X155.278 Y74.743 E7.46908
G1 X154.531 Y74.998 E7.50846
G1 X153.762 Y75.177 E7.54785
G1 X152.978 Y75.277 E7.58728
G1 X152.383 Y75.3 E7.61699
G1 X142.617 Y75.3 E8.10422
G1 X141.828 Y75.26 E8.14363
G1 X141.048 Y75.141 E8.183
G1 X140.283 Y74.943 E8.22242
G1 X139.543 Y74.669 E8.26179
G1 X138.834 Y74.321 E8.30119
G1 X138.163 Y73.903 E8.34063
G1 X137.539 Y73.42 E8.38
G1 X137.102 Y73.015 E8.40973
G1 X136.985 Y72.898 E8.41798
G1 X136.455 Y72.312 E8.4574
G1 X135.988 Y71.676 E8.49677
G1 X135.587 Y70.996 E8.53615
G1 X135.267 Y70.3 E8.57437
G1 X70.3 Y70.3 E11.81559
G1 X70.3 Y135.273 E15.0571
G1 X70.457 Y135.331 E15.06545
G1 X71.166 Y135.679 E15.10485
G1 X71.837 Y136.097 E15.1443
G1 X72.461 Y136.58 E15.18366
G1 X72.898 Y136.985 E15.21339
G1 X73.015 Y137.102 E15.22164
G1 X73.545 Y137.688 E15.26106
G1 X74.012 Y138.324 E15.30043
G1 X74.413 Y139.004 E15.33981
G1 X74.743 Y139.722 E15.37924
G1 X74.998 Y140.469 E15.41862
G1 X75.177 Y141.238 E15.45801
G1 X75.277 Y142.022 E15.49744
G1 X75.3 Y142.617 E15.52715
G1 X75.3 Y152.383 E16.01437
G1 X75.26 Y153.172 E16.05379
G1 X75.141 Y153.952 E16.09315
G1 X74.943 Y154.717 E16.13258
G1 X74.669 Y155.457 E16.17194
G1 X74.321 Y156.166 E16.21135
G1 X73.903 Y156.837 E16.25079
G1 X73.42 Y157.461 E16.29016
G1 X73.015 Y157.898 E16.31988
G1 X72.898 Y158.015 E16.32814
G1 X72.312 Y158.545 E16.36756
G1 X71.676 Y159.012 E16.40692
G1 X70.996 Y159.413 E16.44631
G1 X70.278 Y159.743 E16.48573
G1 X69.531 Y159.998 E16.52511
G1 X68.762 Y160.177 E16.5645
G1 X67.978 Y160.277 E16.60393
G1 X67.383 Y160.3 E16.63364
G1 X47.617 Y160.3 E17.61977
G1 X46.828 Y160.26 E17.65918
G1 X46.048 Y160.141 E17.69855
G1 X45.283 Y159.943 E17.73797
G1 X44.543 Y159.669 E17.77734
G1 X43.834 Y159.321 E17.81674
G1 X43.163 Y158.903 E17.85618
G1 X42.539 Y158.42 E17.89555
G1 X42.102 Y158.015 E17.92527
G1 X41.985 Y157.898 E17.93353
G1 X41.455 Y157.312 E17.97295
G1 X40.988 Y156.676 E18.01231
G1 X40.587 Y155.996 E18.0517
G1 X40.257 Y155.278 E18.09112
G1 X40.002 Y154.531 E18.1305
G1 X39.823 Y153.762 E18.16989
G1 X39.723 Y152.978 E18.20932
G1 X39.7 Y152.383 E18.23903
G1 X39.7 Y142.617 E18.72626
G1 X39.74 Y141.828 E18.76567
G1 X39.859 Y141.048 E18.80504
G1 X40.057 Y140.283 E18.84446
G1 X40.331 Y139.543 E18.88383
G1 X40.679 Y138.834 E18.92323
G1 X41.097 Y138.163 E18.96267
G1 X41.58 Y137.539 E19.00204
G1 X41.985 Y137.102 E19.03177
G1 X42.102 Y136.985 E19.04002
G1 X42.688 Y136.455 E19.07944
G1 X43.324 Y135.988 E19.11881
G1 X44.004 Y135.587 E19.15819
G1 X44.7 Y135.267 E19.19641
G1 X44.7 Y52.617 E23.31983
G1 X44.74 Y51.828 E23.35925
G1 X44.859 Y51.048 E23.39861
G1 X45.057 Y50.283 E23.43804
G1 X45.331 Y49.543 E23.4774
G1 X45.679 Y48.834 E23.51681
G1 X46.097 Y48.163 E23.55625
G1 X46.58 Y47.539 E23.59562
G1 X46.985 Y47.102 E23.62534
G0 F6750 X47.384 Y47.267
G1 F1350 X47.956 Y46.753 E23.66371
G1 X48.578 Y46.3 E23.7021
G1 X49.243 Y45.914 E23.74046
G1 X49.945 Y45.599 E23.77885
G1 X50.676 Y45.359 E23.81723
G1 X51.427 Y45.196 E23.85557
G1 X52.192 Y45.112 E23.89397
G1 X52.617 Y45.1 E23.91518
G1 X135.551 Y45.1 E28.05277
G1 X135.731 Y44.627 E28.07802
G1 X136.078 Y43.941 E28.11637
G1 X136.494 Y43.294 E28.15475
G1 X136.975 Y42.694 E28.19312
G1 X137.384 Y42.267 E28.22261
G1 X137.956 Y41.753 E28.26098
G1 X138.578 Y41.3 E28.29937
G1 X139.243 Y40.914 E28.33773
G1 X139.945 Y40.599 E28.37612
G1 X140.676 Y40.359 E28.4145
G1 X141.427 Y40.196 E28.45284
G1 X142.192 Y40.112 E28.49124
G1 X142.617 Y40.1 E28.51245
G1 X152.383 Y40.1 E28.99968
G1 X153.151 Y40.14 E29.03805
G1 X153.911 Y40.259 E29.07642
G1 X154.654 Y40.457 E29.11479
G1 X155.373 Y40.731 E29.15317
G1 X156.059 Y41.078 E29.19153
G1 X156.706 Y41.494 E29.2299
G1 X157.306 Y41.975 E29.26827
G1 X157.853 Y42.516 E29.30665
G1 X158.341 Y43.111 E29.34504
G1 X158.764 Y43.753 E29.3834
G1 X159.119 Y44.436 E29.4218
G1 X159.4 Y45.151 E29.46013
G1 X159.606 Y45.893 E29.49855
G1 X159.734 Y46.651 E29.5369
G1 X159.783 Y47.456 E29.57714
G1 X159.9 Y67.339 E30.56912
G1 X159.864 Y68.108 E30.60753
G1 X159.749 Y68.868 E30.64588
G1 X159.556 Y69.613 E30.68427
G1 X159.287 Y70.333 E30.72262
G1 X158.944 Y71.022 E30.76102
G1 X158.531 Y71.671 E30.7994
G1 X158.053 Y72.274 E30.83779
G1 X157.733 Y72.616 E30.86115
G1 X157.616 Y72.733 E30.86941
G1 X157.044 Y73.247 E30.90777
G1 X156.422 Y73.7 E30.94616
G1 X155.757 Y74.086 E30.98452
G1 X155.055 Y74.401 E31.02291
G1 X154.324 Y74.641 E31.0613
G1 X153.573 Y74.804 E31.09964
G1 X152.808 Y74.888 E31.13803
G1 X152.383 Y74.9 E31.15924
G1 X142.617 Y74.9 E31.64647
G1 X141.849 Y74.86 E31.68484
G1 X141.089 Y74.741 E31.72322
G1 X140.346 Y74.543 E31.76158
G1 X139.627 Y74.269 E31.79997
G1 X138.941 Y73.922 E31.83832
G1 X138.294 Y73.506 E31.8767
G1 X137.694 Y73.025 E31.91506
G1 X137.267 Y72.616 E31.94456
G1 X136.753 Y72.044 E31.98293
G1 X136.3 Y71.422 E32.02132
G1 X135.914 Y70.757 E32.05968
G1 X135.599 Y70.055 E32.09806
G1 X135.548 Y69.9 E32.1062
G1 X69.9 Y69.9 E35.3814
G1 X69.9 Y135.551 E38.65674
G1 X70.373 Y135.731 E38.68199
G1 X71.059 Y136.078 E38.72034
G1 X71.706 Y136.494 E38.75872
G1 X72.306 Y136.975 E38.79708
G1 X72.733 Y137.384 E38.82658
G1 X73.247 Y137.956 E38.86495
G1 X73.7 Y138.578 E38.90334
G1 X74.086 Y139.243 E38.9417
G1 X74.401 Y139.945 E38.98009
G1 X74.641 Y140.676 E39.01847
G1 X74.804 Y141.427 E39.05681
G1 X74.888 Y142.192 E39.09521
G1 X74.9 Y142.617 E39.11642
G1 X74.9 Y152.383 E39.60364
G1 X74.86 Y153.151 E39.64201
G1 X74.741 Y153.911 E39.68039
G1 X74.543 Y154.654 E39.71875
G1 X74.269 Y155.373 E39.75714
G1 X73.922 Y156.059 E39.79549
G1 X73.506 Y156.706 E39.83387
G1 X73.025 Y157.306 E39.87224
G1 X72.616 Y157.733 E39.90173
G1 X72.044 Y158.247 E39.9401
G1 X71.422 Y158.7 E39.97849
G1 X70.757 Y159.086 E40.01685
G1 X70.055 Y159.401 E40.05524
G1 X69.324 Y159.641 E40.09362
G1 X68.573 Y159.804 E40.13196
G1 X67.808 Y159.888 E40.17036
G1 X67.383 Y159.9 E40.19157
G1 X47.617 Y159.9 E41.1777
G1 X46.849 Y159.86 E41.21607
G1 X46.089 Y159.741 E41.25445
G1 X45.346 Y159.543 E41.29281
G1 X44.627 Y159.269 E41.3312
G1 X43.941 Y158.922 E41.36955
G1 X43.294 Y158.506 E41.40793
G1 X42.694 Y158.025 E41.44629
G1 X42.267 Y157.616 E41.47579
G1 X41.753 Y157.044 E41.51416
G1 X41.3 Y156.422 E41.55255
G1 X40.914 Y155.757 E41.59091
G1 X40.599 Y155.055 E41.62929
G1 X40.359 Y154.324 E41.66768
G1 X40.196 Y153.573 E41.70602
G1 X40.112 Y152.808 E41.74441
G1 X40.1 Y152.383 E41.76563
G1 X40.1 Y142.617 E42.25285
G1 X40.14 Y141.849 E42.29122
G1 X40.259 Y141.089 E42.3296
G1 X40.457 Y140.346 E42.36796
G1 X40.731 Y139.627 E42.40635
G1 X41.078 Y138.941 E42.4447
G1 X41.494 Y138.294 E42.48308
G1 X41.975 Y137.694 E42.52144
G1 X42.384 Y137.267 E42.55094
G1 X42.956 Y136.753 E42.58931
G1 X43.578 Y136.3 E42.6277
G1 X44.243 Y135.914 E42.66606
G1 X44.945 Y135.599 E42.70445
G1 X45.1 Y135.548 E42.71259
G1 X45.1 Y52.617 E46.85003
G1 X45.14 Y51.849 E46.8884
G1 X45.259 Y51.089 E46.92678
G1 X45.457 Y50.346 E46.96514
G1 X45.731 Y49.627 E47.00353
G1 X46.078 Y48.941 E47.04188
G1 X46.494 Y48.294 E47.08026
G1 X46.975 Y47.694 E47.11862
G1 X47.384 Y47.267 E47.14812
G0 F6750 X47.55 Y47.667
G1 F1350 X47.667 Y47.55 E47.15638
G1 X48.224 Y47.05 E47.19372
G1 X48.83 Y46.613 E47.23099
G1 X49.48 Y46.242 E47.26833
G1 X50.166 Y45.943 E47.30567
G1 X50.88 Y45.719 E47.343
G1 X51.613 Y45.572 E47.3803
G1 X52.617 Y45.5 E47.43052
G1 X135.832 Y45.5 E51.58213
G1 X135.857 Y45.41 E51.58679
G1 X136.13 Y44.714 E51.62409
G1 X136.477 Y44.051 E51.66142
G1 X136.892 Y43.428 E51.69877
G1 X137.55 Y42.667 E51.74896
G1 X137.667 Y42.55 E51.75722
G1 X138.224 Y42.05 E51.79456
G1 X138.83 Y41.613 E51.83183
G1 X139.48 Y41.242 E51.86917
G1 X140.166 Y40.943 E51.90651
G1 X140.88 Y40.719 E51.94384
G1 X141.613 Y40.572 E51.98114
G1 X142.617 Y40.5 E52.03136
G1 X152.383 Y40.5 E52.51858
G1 X153.13 Y40.54 E52.5559
G1 X153.868 Y40.659 E52.5932
G1 X154.59 Y40.857 E52.63055
G1 X155.286 Y41.13 E52.66785
G1 X155.949 Y41.477 E52.70518
G1 X156.572 Y41.892 E52.74253
G1 X157.146 Y42.371 E52.77983
G1 X157.667 Y42.908 E52.81716
G1 X158.126 Y43.498 E52.85445
G1 X158.521 Y44.134 E52.8918
G1 X158.845 Y44.808 E52.92911
G1 X159.095 Y45.513 E52.96643
G1 X159.269 Y46.241 E53.00377
G1 X159.364 Y46.983 E53.04109
G1 X159.383 Y47.459 E53.06486
G1 X159.5 Y67.342 E54.05684
G1 X159.464 Y68.089 E54.09415
G1 X159.349 Y68.828 E54.13147
G1 X159.156 Y69.551 E54.1688
G1 X158.887 Y70.249 E54.20612
G1 X158.544 Y70.914 E54.24345
G1 X158.133 Y71.539 E54.28077
G1 X157.45 Y72.333 E54.33302
G1 X157.333 Y72.45 E54.34128
G1 X156.776 Y72.95 E54.37862
G1 X156.17 Y73.387 E54.41589
G1 X155.52 Y73.758 E54.45323
G1 X154.834 Y74.057 E54.49057
G1 X154.12 Y74.281 E54.5279
G1 X153.387 Y74.428 E54.5652
G1 X152.383 Y74.5 E54.61542
G1 X142.617 Y74.5 E55.10265
G1 X141.87 Y74.46 E55.13997
G1 X141.132 Y74.341 E55.17726
G1 X140.41 Y74.143 E55.21461
G1 X139.714 Y73.87 E55.25191
G1 X139.051 Y73.523 E55.28924
G1 X138.428 Y73.108 E55.32659
G1 X137.667 Y72.45 E55.37678
G1 X137.55 Y72.333 E55.38504
G1 X137.05 Y71.776 E55.42238
G1 X136.613 Y71.17 E55.45965
G1 X136.242 Y70.52 E55.49699
G1 X135.943 Y69.834 E55.53433
G1 X135.838 Y69.5 E55.55179
G1 X69.5 Y69.5 E58.86141
G1 X69.5 Y135.832 E62.17073
G1 X69.59 Y135.857 E62.17539
G1 X70.286 Y136.13 E62.21269
G1 X70.949 Y136.477 E62.25002
G1 X71.572 Y136.892 E62.28737
G1 X72.333 Y137.55 E62.33756
G1 X72.45 Y137.667 E62.34581
G1 X72.95 Y138.224 E62.38316
G1 X73.387 Y138.83 E62.42043
G1 X73.758 Y139.48 E62.45777
G1 X74.057 Y140.166 E62.4951
G1 X74.281 Y140.88 E62.53244
G1 X74.428 Y141.613 E62.56973
G1 X74.5 Y142.617 E62.61995
G1 X74.5 Y152.383 E63.10718
G1 X74.46 Y153.13 E63.1445
G1 X74.341 Y153.868 E63.1818
G1 X74.143 Y154.59 E63.21915
G1 X73.87 Y155.286 E63.25645
G1 X73.523 Y155.949 E63.29378
G1 X73.108 Y156.572 E63.33113
G1 X72.45 Y157.333 E63.38132
G1 X72.333 Y157.45 E63.38957
G1 X71.776 Y157.95 E63.42691
G1 X71.17 Y158.387 E63.46419
G1 X70.52 Y158.758 E63.50153
G1 X69.834 Y159.057 E63.53886
G1 X69.12 Y159.281 E63.5762
G1 X68.387 Y159.428 E63.61349
G1 X67.383 Y159.5 E63.66371
G1 X47.617 Y159.5 E64.64984
G1 X46.87 Y159.46 E64.68716
G1 X46.132 Y159.341 E64.72446
G1 X45.41 Y159.143 E64.76181
G1 X44.714 Y158.87 E64.79911
G1 X44.051 Y158.523 E64.83644
G1 X43.428 Y158.108 E64.87379
G1 X42.667 Y157.45 E64.92398
G1 X42.55 Y157.333 E64.93223
G1 X42.05 Y156.776 E64.96958
G1 X41.613 Y156.17 E65.00685
G1 X41.242 Y155.52 E65.04419
G1 X40.943 Y154.834 E65.08152
G1 X40.719 Y154.12 E65.11886
G1 X40.572 Y153.387 E65.15616
G1 X40.5 Y152.383 E65.20637
G1 X40.5 Y142.617 E65.6936
G1 X40.54 Y141.87 E65.73092
G1 X40.659 Y141.132 E65.76822
G1 X40.857 Y140.41 E65.80557
G1 X41.13 Y139.714 E65.84287
G1 X41.477 Y139.051 E65.8802
G1 X41.892 Y138.428 E65.91755
G1 X42.55 Y137.667 E65.96774
G1 X42.667 Y137.55 E65.97599
G1 X43.224 Y137.05 E66.01334
G1 X43.83 Y136.613 E66.05061
G1 X44.48 Y136.242 E66.08795
G1 X45.166 Y135.943 E66.12528
G1 X45.5 Y135.838 E66.14275
G1 X45.5 Y52.617 E70.29466
G1 X45.54 Y51.87 E70.33198
G1 X45.659 Y51.132 E70.36928
G1 X45.857 Y50.41 E70.40663
G1 X46.13 Y49.714 E70.44393
G1 X46.477 Y49.051 E70.48126
G1 X46.892 Y48.428 E70.51861
G1 X47.55 Y47.667 E70.5688
G0 F6750 X47.833 Y47.95
G1 F1350 X47.95 Y47.833 E70.57705
G1 X48.491 Y47.349 E70.61327
G1 X49.082 Y46.926 E70.64953
G1 X49.716 Y46.572 E70.68576
G1 X50.385 Y46.289 E70.722
G1 X51.081 Y46.081 E70.75824
G1 X51.796 Y45.951 E70.79449
G1 X52.617 Y45.9 E70.83553
G1 X136.137 Y45.9 E75.00236
G1 X136.257 Y45.476 E75.02435
G1 X136.53 Y44.803 E75.06058
G1 X136.875 Y44.164 E75.09681
G1 X137.289 Y43.567 E75.13305
G1 X137.833 Y42.95 E75.17409
G1 X137.95 Y42.833 E75.18235
G1 X138.491 Y42.349 E75.21856
G1 X139.082 Y41.926 E75.25482
G1 X139.716 Y41.572 E75.29105
G1 X140.385 Y41.289 E75.32729
G1 X141.081 Y41.081 E75.36353
G1 X141.796 Y40.951 E75.39979
G1 X142.617 Y40.9 E75.44083
G1 X152.383 Y40.9 E75.92805
G1 X153.108 Y40.94 E75.96428
G1 X153.825 Y41.059 E76.00054
G1 X154.524 Y41.257 E76.03679
G1 X155.197 Y41.53 E76.07302
G1 X155.836 Y41.875 E76.10925
G1 X156.433 Y42.289 E76.14549
G1 X156.981 Y42.765 E76.18171
G1 X157.474 Y43.299 E76.21797
G1 X157.904 Y43.884 E76.25419
G1 X158.268 Y44.513 E76.29044
G1 X158.561 Y45.178 E76.3267
G1 X158.779 Y45.871 E76.36294
G1 X158.919 Y46.583 E76.39915
G1 X158.983 Y47.461 E76.44307
G1 X159.1 Y67.344 E77.43505
G1 X159.064 Y68.07 E77.47131
G1 X158.949 Y68.787 E77.50754
G1 X158.756 Y69.487 E77.54377
G1 X158.487 Y70.162 E77.58002
G1 X158.145 Y70.803 E77.61627
G1 X157.735 Y71.402 E77.65248
G1 X157.167 Y72.05 E77.69547
G1 X157.05 Y72.167 E77.70373
G1 X156.509 Y72.651 E77.73994
G1 X155.918 Y73.074 E77.7762
G1 X155.284 Y73.428 E77.81243
G1 X154.615 Y73.711 E77.84867
G1 X153.919 Y73.919 E77.88491
G1 X153.204 Y74.049 E77.92117
G1 X152.383 Y74.1 E77.9622
G1 X142.617 Y74.1 E78.44943
G1 X141.892 Y74.06 E78.48566
G1 X141.175 Y73.941 E78.52192
G1 X140.476 Y73.743 E78.55816
G1 X139.803 Y73.47 E78.5944
G1 X139.164 Y73.125 E78.63063
G1 X138.567 Y72.711 E78.66687
G1 X137.95 Y72.167 E78.70791
G1 X137.833 Y72.05 E78.71617
G1 X137.349 Y71.509 E78.75238
G1 X136.926 Y70.918 E78.78864
G1 X136.572 Y70.284 E78.82487
G1 X136.289 Y69.615 E78.86111
G1 X136.135 Y69.1 E78.88792
G1 X69.1 Y69.1 E82.23231
G1 X69.1 Y136.137 E85.5768
G1 X69.524 Y136.257 E85.59879
G1 X70.197 Y136.53 E85.63502
G1 X70.836 Y136.875 E85.67125
G1 X71.433 Y137.289 E85.7075
G1 X72.05 Y137.833 E85.74853
G1 X72.167 Y137.95 E85.75679
G1 X72.651 Y138.491 E85.79301
G1 X73.074 Y139.082 E85.82926
G1 X73.428 Y139.716 E85.86549
G1 X73.711 Y140.385 E85.90173
G1 X73.919 Y141.081 E85.93797
G1 X74.049 Y141.796 E85.97423
G1 X74.1 Y142.617 E86.01527
G1 X74.1 Y152.383 E86.5025
G1 X74.06 Y153.108 E86.53872
G1 X73.941 Y153.825 E86.57498
G1 X73.743 Y154.524 E86.61123
G1 X73.47 Y155.197 E86.64746
G1 X73.125 Y155.836 E86.68369
G1 X72.711 Y156.433 E86.71994
G1 X72.167 Y157.05 E86.76097
G1 X72.05 Y157.167 E86.76923
G1 X71.509 Y157.651 E86.80544
G1 X70.918 Y158.074 E86.8417
G1 X70.284 Y158.428 E86.87793
G1 X69.615 Y158.711 E86.91417
G1 X68.919 Y158.919 E86.95041
G1 X68.204 Y159.049 E86.98667
G1 X67.383 Y159.1 E87.02771
G1 X47.617 Y159.1 E88.01384
G1 X46.892 Y159.06 E88.05006
G1 X46.175 Y158.941 E88.08632
G1 X45.476 Y158.743 E88.12257
G1 X44.803 Y158.47 E88.1588
G1 X44.164 Y158.125 E88.19503
G1 X43.567 Y157.711 E88.23128
G1 X42.95 Y157.167 E88.27231
G1 X42.833 Y157.05 E88.28057
