;FLAVOR:Marlin
;TIME:8210
;Filament used: 3.22657m
;Layer height: 0.15
;MINX:78.675
;MINY:79.678
;MINZ:0.3
;MAXX:121.327
;MAXY:116.8
;MAXZ:19.95
;Generated with Cura_SteamEngine 4.5.0
M140 S60
M105
M190 S60
M104 S220
M105
M109 S220
M82 ;absolute extrusion mode
G28
G1 Z5 F5000
G92 E0
G92 E0
G1 F1500 E-6.5
;LAYER_COUNT:132
;LAYER:0
M107
M204 S1000
G0 F6000 X88.937 Y84.399 Z0.3
;TYPE:SKIRT
G1 F1500 E0
G1 F1050 X89.177 Y84.154 E0.01711
G1 X89.458 Y83.881 E0.03666
G1 X89.719 Y83.64 E0.05438
G1 X89.958 Y83.428 E0.07032
G1 X90.422 Y83.04 E0.10049
G1 X90.635 Y82.871 E0.11406
G1 X91.026 Y82.58 E0.13838
G1 X91.375 Y82.337 E0.15959
G1 X91.638 Y82.161 E0.17538
G1 X92.133 Y81.851 E0.20452
G1 X92.355 Y81.719 E0.21741
G1 X92.786 Y81.48 E0.24199
G1 X93.394 Y81.174 E0.27595
G1 X93.647 Y81.055 E0.2899
G1 X93.954 Y80.918 E0.30667
G1 X94.274 Y80.784 E0.32398
G1 X94.755 Y80.601 E0.34966
G1 X95.16 Y80.462 E0.37102
G1 X95.475 Y80.362 E0.38751
G1 X95.809 Y80.263 E0.40489
G1 X96.145 Y80.171 E0.42227
G1 X96.483 Y80.087 E0.43964
G1 X96.813 Y80.013 E0.45651
G1 X97.153 Y79.944 E0.47382
G1 X97.583 Y79.869 E0.4956
G1 X97.941 Y79.817 E0.51365
G1 X98.281 Y79.775 E0.53074
G1 X98.619 Y79.741 E0.54769
G1 X98.946 Y79.715 E0.56405
G1 X99.306 Y79.694 E0.58204
G1 X99.691 Y79.681 E0.60126
G1 X100.029 Y79.678 E0.61813
G1 X100.384 Y79.683 E0.63584
G1 X101.071 Y79.716 E0.67015
G1 X101.41 Y79.743 E0.68712
G1 X101.706 Y79.772 E0.70196
G1 X101.977 Y79.804 E0.71557
G1 X102.454 Y79.875 E0.73963
G1 X103.134 Y80.003 E0.77415
G1 X103.466 Y80.075 E0.7911
G1 X103.776 Y80.149 E0.807
G1 X104.026 Y80.214 E0.81989
G1 X104.446 Y80.336 E0.84171
G1 X105.107 Y80.553 E0.87642
G1 X105.365 Y80.646 E0.8901
G1 X105.782 Y80.81 E0.91246
G1 X106.199 Y80.988 E0.93508
G1 X106.529 Y81.138 E0.95316
G1 X106.821 Y81.279 E0.96934
G1 X107.164 Y81.455 E0.98857
G1 X107.472 Y81.623 E1.00608
G1 X107.786 Y81.804 E1.02416
G1 X108.258 Y82.094 E1.0518
G1 X108.482 Y82.238 E1.06508
G1 X108.912 Y82.535 E1.09115
G1 X109.253 Y82.788 E1.11234
G1 X109.513 Y82.989 E1.12873
G1 X109.786 Y83.21 E1.14626
G1 X110.065 Y83.448 E1.16455
G1 X110.33 Y83.684 E1.18226
G1 X110.601 Y83.937 E1.20075
G1 X110.846 Y84.177 E1.21786
G1 X111.119 Y84.458 E1.23741
G1 X111.36 Y84.719 E1.25513
G1 X111.572 Y84.958 E1.27107
G1 X111.96 Y85.422 E1.30125
G1 X112.129 Y85.635 E1.31481
G1 X112.42 Y86.026 E1.33913
G1 X112.663 Y86.375 E1.36034
G1 X112.839 Y86.638 E1.37613
G1 X113.149 Y87.133 E1.40527
G1 X113.281 Y87.355 E1.41816
G1 X113.52 Y87.786 E1.44274
G1 X113.822 Y88.386 E1.47626
G1 X113.939 Y88.634 E1.48994
G1 X114.082 Y88.956 E1.50751
G1 X114.219 Y89.284 E1.52525
G1 X114.399 Y89.757 E1.5505
G1 X114.537 Y90.159 E1.5717
G1 X114.637 Y90.469 E1.58795
G1 X114.736 Y90.802 E1.60529
G1 X114.827 Y91.139 E1.6227
G1 X114.911 Y91.476 E1.64003
G1 X114.988 Y91.815 E1.65737
G1 X115.057 Y92.156 E1.67473
G1 X115.128 Y92.562 E1.69529
G1 X115.179 Y92.907 E1.71269
G1 X115.222 Y93.245 E1.72969
G1 X115.257 Y93.583 E1.74664
G1 X115.285 Y93.932 E1.76411
G1 X115.315 Y94.524 E1.79368
G1 X115.325 Y94.987 E1.81679
G1 X115.326 Y96.087 E1.87167
G1 X115.4 Y96.106 E1.87548
G1 X116.059 Y96.346 E1.91047
G1 X116.328 Y96.458 E1.92501
G1 X117.041 Y96.798 E1.96442
G1 X117.716 Y97.209 E2.00384
G1 X118.345 Y97.685 E2.0432
G1 X118.924 Y98.223 E2.08263
G1 X119.675 Y99.123 E2.14111
G1 X119.828 Y99.337 E2.15423
G1 X120.254 Y100.001 E2.19359
G1 X120.611 Y100.706 E2.23302
G1 X120.895 Y101.443 E2.27242
G1 X121.094 Y102.168 E2.30993
G1 X121.135 Y102.351 E2.31929
G1 X121.269 Y103.129 E2.35867
G1 X121.324 Y104.044 E2.4044
G1 X121.327 Y105.996 E2.50179
G1 X121.323 Y107.379 E2.57079
G1 X121.324 Y108.878 E2.64557
G1 X121.285 Y109.667 E2.68498
G1 X121.166 Y110.447 E2.72435
G1 X120.968 Y111.212 E2.76377
G1 X120.695 Y111.953 E2.80317
G1 X120.347 Y112.662 E2.84257
G1 X119.93 Y113.333 E2.88199
G1 X119.448 Y113.957 E2.92133
G1 X119.039 Y114.398 E2.95133
G1 X118.922 Y114.515 E2.95959
G1 X118.336 Y115.045 E2.99901
G1 X117.7 Y115.512 E3.03837
G1 X117.02 Y115.913 E3.07776
G1 X116.302 Y116.243 E3.11718
G1 X115.555 Y116.498 E3.15656
G1 X114.786 Y116.677 E3.19595
G1 X114.002 Y116.777 E3.23538
G1 X113.407 Y116.8 E3.26509
G1 X86.592 Y116.8 E4.6029
G1 X85.803 Y116.76 E4.64231
G1 X85.023 Y116.641 E4.68167
G1 X84.258 Y116.443 E4.7211
G1 X83.518 Y116.169 E4.76047
G1 X82.809 Y115.821 E4.79987
G1 X82.138 Y115.403 E4.83931
G1 X81.514 Y114.92 E4.87868
G1 X81.077 Y114.515 E4.9084
G1 X80.96 Y114.398 E4.91666
G1 X80.43 Y113.812 E4.95608
G1 X79.963 Y113.176 E4.99544
G1 X79.562 Y112.496 E5.03483
G1 X79.232 Y111.778 E5.07425
G1 X78.977 Y111.031 E5.11363
G1 X78.798 Y110.262 E5.15302
G1 X78.698 Y109.478 E5.19245
G1 X78.675 Y108.881 E5.22226
G1 X78.676 Y104.075 E5.46203
G1 X78.716 Y103.287 E5.5014
G1 X78.836 Y102.506 E5.54082
G1 X78.956 Y102.004 E5.56657
G1 X79.034 Y101.721 E5.58121
G1 X79.282 Y100.972 E5.62058
G1 X79.605 Y100.251 E5.65999
G1 X79.999 Y99.567 E5.69937
G1 X80.46 Y98.925 E5.7388
G1 X80.937 Y98.382 E5.77486
G1 X81.096 Y98.217 E5.7863
G1 X81.672 Y97.676 E5.82572
G1 X82.3 Y97.197 E5.86512
G1 X82.973 Y96.784 E5.90452
G1 X83.684 Y96.441 E5.9439
G1 X84.255 Y96.226 E5.97434
G1 X84.505 Y96.143 E5.98748
G1 X84.682 Y96.094 E5.99665
G1 X84.684 Y94.632 E6.06959
G1 X84.706 Y94.058 E6.09824
G1 X84.737 Y93.647 E6.11881
G1 X84.772 Y93.29 E6.1367
G1 X84.806 Y93.011 E6.15073
G1 X84.863 Y92.625 E6.17019
G1 X84.936 Y92.203 E6.19156
G1 X85.009 Y91.834 E6.21033
G1 X85.137 Y91.276 E6.23889
G1 X85.203 Y91.015 E6.25232
G1 X85.349 Y90.51 E6.27854
G1 X85.482 Y90.102 E6.29995
G1 X85.597 Y89.773 E6.31734
G1 X85.72 Y89.446 E6.33477
G1 X85.852 Y89.119 E6.35236
G1 X85.993 Y88.79 E6.37022
G1 X86.138 Y88.471 E6.3877
G1 X86.279 Y88.179 E6.40388
G1 X86.455 Y87.836 E6.42312
G1 X86.623 Y87.528 E6.44062
G1 X86.8 Y87.221 E6.4583
G1 X87.093 Y86.743 E6.48627
G1 X87.237 Y86.519 E6.49956
G1 X87.536 Y86.086 E6.52581
G1 X87.79 Y85.744 E6.54706
G1 X87.979 Y85.501 E6.56242
G1 X88.199 Y85.228 E6.57991
G1 X88.458 Y84.922 E6.59991
G1 X88.695 Y84.657 E6.61765
G1 X88.937 Y84.399 E6.6353
G0 F6000 X89.223 Y84.679
G1 F1050 X89.463 Y84.434 E6.65241
G1 X89.729 Y84.175 E6.67093
G1 X89.99 Y83.934 E6.68865
G1 X90.217 Y83.733 E6.70378
G1 X90.671 Y83.353 E6.73332
G1 X90.884 Y83.184 E6.74688
G1 X91.255 Y82.908 E6.76995
G1 X91.604 Y82.665 E6.79117
G1 X91.853 Y82.498 E6.80613
G1 X92.337 Y82.194 E6.83464
G1 X92.559 Y82.062 E6.84753
G1 X92.968 Y81.836 E6.87084
G1 X93.564 Y81.536 E6.90413
G1 X93.817 Y81.417 E6.91808
G1 X94.109 Y81.287 E6.93402
G1 X94.429 Y81.153 E6.95133
G1 X94.885 Y80.98 E6.97566
G1 X95.29 Y80.841 E6.99703
G1 X95.589 Y80.745 E7.01269
G1 X95.923 Y80.646 E7.03007
G1 X96.241 Y80.559 E7.04652
G1 X96.579 Y80.475 E7.0639
G1 X96.892 Y80.405 E7.0799
G1 X97.232 Y80.336 E7.09721
G1 X97.64 Y80.265 E7.11787
G1 X97.998 Y80.213 E7.13592
G1 X98.321 Y80.173 E7.15215
G1 X98.659 Y80.139 E7.1691
G1 X98.969 Y80.115 E7.18461
G1 X99.329 Y80.094 E7.20261
G1 X99.694 Y80.081 E7.22083
G1 X100.032 Y80.078 E7.23769
G1 X100.37 Y80.083 E7.25456
G1 X101.04 Y80.114 E7.28802
G1 X101.379 Y80.141 E7.30498
G1 X101.93 Y80.201 E7.33264
G1 X102.383 Y80.269 E7.35549
G1 X103.049 Y80.394 E7.3893
G1 X103.381 Y80.466 E7.40625
G1 X103.675 Y80.536 E7.42132
G1 X103.925 Y80.601 E7.43421
G1 X104.323 Y80.717 E7.45489
G1 X104.971 Y80.929 E7.48891
G1 X105.229 Y81.022 E7.50259
G1 X105.625 Y81.178 E7.52382
G1 X106.042 Y81.356 E7.54644
G1 X106.355 Y81.498 E7.56359
G1 X106.647 Y81.639 E7.57977
G1 X106.973 Y81.807 E7.59807
G1 X107.281 Y81.975 E7.61557
G1 X107.578 Y82.146 E7.63267
G1 X108.042 Y82.43 E7.65981
G1 X108.266 Y82.574 E7.67309
G1 X108.673 Y82.856 E7.6978
G1 X109.014 Y83.109 E7.71898
G1 X109.261 Y83.3 E7.73456
G1 X109.534 Y83.521 E7.75208
G1 X109.799 Y83.747 E7.76946
G1 X110.064 Y83.983 E7.78716
G1 X110.321 Y84.223 E7.8047
G1 X110.566 Y84.463 E7.82182
G1 X110.825 Y84.729 E7.84034
G1 X111.066 Y84.99 E7.85806
G1 X111.267 Y85.217 E7.87319
G1 X111.647 Y85.671 E7.90273
G1 X111.816 Y85.884 E7.91629
G1 X112.092 Y86.255 E7.93936
G1 X112.335 Y86.604 E7.96058
G1 X112.502 Y86.853 E7.97553
G1 X112.806 Y87.337 E8.00405
G1 X112.938 Y87.559 E8.01693
G1 X113.164 Y87.968 E8.04025
G1 X113.461 Y88.557 E8.07316
G1 X113.578 Y88.805 E8.08684
G1 X113.713 Y89.11 E8.10348
G1 X113.85 Y89.438 E8.12121
G1 X114.021 Y89.887 E8.14518
G1 X114.159 Y90.289 E8.16639
G1 X114.253 Y90.583 E8.18179
G1 X114.352 Y90.916 E8.19912
G1 X114.439 Y91.235 E8.21561
G1 X114.523 Y91.572 E8.23294
G1 X114.596 Y91.894 E8.24941
G1 X114.665 Y92.235 E8.26677
G1 X114.732 Y92.621 E8.28632
G1 X114.783 Y92.966 E8.30372
G1 X114.824 Y93.286 E8.31981
G1 X114.859 Y93.624 E8.33677
G1 X114.885 Y93.955 E8.35333
G1 X114.915 Y94.534 E8.38225
G1 X114.925 Y94.988 E8.40491
G1 X114.926 Y96.397 E8.47521
G1 X115.337 Y96.506 E8.49642
G1 X115.905 Y96.715 E8.52661
G1 X116.174 Y96.827 E8.54115
G1 X116.868 Y97.16 E8.57956
G1 X117.524 Y97.562 E8.61794
G1 X118.134 Y98.03 E8.6563
G1 X118.692 Y98.559 E8.69466
G1 X119.35 Y99.355 E8.74618
G1 X119.503 Y99.569 E8.75931
G1 X119.917 Y100.217 E8.79767
G1 X120.262 Y100.905 E8.83607
G1 X120.533 Y101.625 E8.87445
G1 X120.704 Y102.255 E8.90702
G1 X120.745 Y102.438 E8.91637
G1 X120.874 Y103.196 E8.95473
G1 X120.924 Y104.045 E8.99716
G1 X120.927 Y105.997 E9.09455
G1 X120.923 Y107.378 E9.16345
G1 X120.924 Y108.878 E9.23828
G1 X120.885 Y109.646 E9.27665
G1 X120.766 Y110.406 E9.31503
G1 X120.568 Y111.15 E9.35344
G1 X120.295 Y111.869 E9.39181
G1 X119.949 Y112.555 E9.43014
G1 X119.533 Y113.202 E9.46852
G1 X119.052 Y113.803 E9.50692
G1 X118.64 Y114.233 E9.53663
G1 X118.068 Y114.747 E9.575
G1 X117.446 Y115.2 E9.61339
G1 X116.781 Y115.586 E9.65175
G1 X116.079 Y115.901 E9.69013
G1 X115.348 Y116.141 E9.72852
G1 X114.597 Y116.304 E9.76686
G1 X113.832 Y116.388 E9.80525
G1 X113.407 Y116.4 E9.82647
G1 X86.592 Y116.4 E11.16427
G1 X85.824 Y116.36 E11.20264
G1 X85.064 Y116.241 E11.24102
G1 X84.321 Y116.043 E11.27938
G1 X83.602 Y115.769 E11.31777
G1 X82.916 Y115.422 E11.35612
G1 X82.269 Y115.006 E11.3945
G1 X81.669 Y114.525 E11.43286
G1 X81.242 Y114.116 E11.46236
G1 X80.728 Y113.544 E11.50073
G1 X80.275 Y112.922 E11.53912
G1 X79.889 Y112.257 E11.57748
G1 X79.574 Y111.555 E11.61587
G1 X79.334 Y110.824 E11.65425
G1 X79.171 Y110.073 E11.69259
G1 X79.087 Y109.308 E11.73099
G1 X79.075 Y108.881 E11.7523
G1 X79.076 Y104.075 E11.99207
G1 X79.116 Y103.307 E12.03044
G1 X79.236 Y102.548 E12.06877
G1 X79.342 Y102.111 E12.09121
G1 X79.42 Y101.828 E12.10585
G1 X79.663 Y101.098 E12.14424
G1 X79.98 Y100.397 E12.18262
G1 X80.368 Y99.733 E12.22099
G1 X80.823 Y99.113 E12.25936
G1 X81.225 Y98.659 E12.28961
G1 X81.384 Y98.494 E12.30104
G1 X81.946 Y97.969 E12.33941
G1 X82.559 Y97.505 E12.37777
G1 X83.218 Y97.107 E12.41618
G1 X83.914 Y96.779 E12.45456
G1 X84.381 Y96.606 E12.47941
G1 X84.631 Y96.523 E12.49255
G1 X85.081 Y96.399 E12.51584
G1 X85.084 Y94.633 E12.60394
G1 X85.105 Y94.088 E12.63115
G1 X85.136 Y93.677 E12.65172
G1 X85.169 Y93.339 E12.66866
G1 X85.203 Y93.06 E12.68268
G1 X85.257 Y92.694 E12.70114
G1 X85.33 Y92.272 E12.72251
G1 X85.4 Y91.921 E12.74036
G1 X85.525 Y91.374 E12.76836
G1 X85.591 Y91.113 E12.78179
G1 X85.729 Y90.634 E12.80666
G1 X85.862 Y90.226 E12.82807
G1 X85.972 Y89.914 E12.84457
G1 X86.095 Y89.587 E12.862
G1 X86.219 Y89.277 E12.87866
G1 X86.36 Y88.948 E12.89652
G1 X86.498 Y88.645 E12.91313
G1 X86.639 Y88.353 E12.9293
G1 X86.807 Y88.027 E12.9476
G1 X86.975 Y87.719 E12.9651
G1 X87.142 Y87.428 E12.98184
G1 X87.429 Y86.959 E13.00928
G1 X87.573 Y86.735 E13.02256
G1 X87.857 Y86.325 E13.04744
G1 X88.111 Y85.983 E13.0687
G1 X88.29 Y85.752 E13.08328
G1 X88.51 Y85.479 E13.10077
G1 X88.756 Y85.189 E13.11974
G1 X88.993 Y84.924 E13.13748
G1 X89.223 Y84.679 E13.15424
G0 F6000 X89.508 Y84.959
G1 F1050 X89.748 Y84.714 E13.17135
G1 X90 Y84.469 E13.18889
G1 X90.261 Y84.228 E13.20661
G1 X90.476 Y84.037 E13.22096
G1 X90.919 Y83.666 E13.24979
G1 X91.132 Y83.497 E13.26335
G1 X91.483 Y83.236 E13.28518
G1 X91.832 Y82.993 E13.30639
G1 X92.069 Y82.836 E13.32058
G1 X92.541 Y82.538 E13.34842
G1 X92.763 Y82.406 E13.36131
G1 X93.151 Y82.192 E13.38342
G1 X93.735 Y81.898 E13.41604
G1 X93.988 Y81.779 E13.42998
G1 X94.263 Y81.656 E13.44501
G1 X94.583 Y81.522 E13.46232
G1 X95.015 Y81.358 E13.48538
G1 X95.42 Y81.219 E13.50674
G1 X95.703 Y81.129 E13.52155
G1 X96.037 Y81.03 E13.53893
G1 X96.338 Y80.948 E13.5545
G1 X96.676 Y80.864 E13.57187
G1 X96.972 Y80.797 E13.58701
G1 X97.312 Y80.728 E13.60432
G1 X97.698 Y80.661 E13.62387
G1 X98.056 Y80.609 E13.64192
G1 X98.361 Y80.571 E13.65725
G1 X98.699 Y80.537 E13.6742
G1 X98.992 Y80.514 E13.68886
G1 X99.352 Y80.493 E13.70685
G1 X99.698 Y80.481 E13.72413
G1 X100.036 Y80.478 E13.74099
G1 X100.355 Y80.483 E13.75691
G1 X101.008 Y80.513 E13.78952
G1 X101.612 Y80.566 E13.81977
G1 X101.883 Y80.598 E13.83338
G1 X102.311 Y80.662 E13.85497
G1 X102.965 Y80.785 E13.88817
G1 X103.297 Y80.857 E13.90512
G1 X103.574 Y80.923 E13.91933
G1 X103.824 Y80.988 E13.93221
G1 X104.201 Y81.098 E13.95181
G1 X104.836 Y81.306 E13.98514
G1 X105.094 Y81.399 E13.99883
G1 X105.468 Y81.546 E14.01888
G1 X105.885 Y81.724 E14.0415
G1 X106.181 Y81.858 E14.05771
G1 X106.473 Y81.999 E14.07388
G1 X106.781 Y82.158 E14.09118
G1 X107.089 Y82.326 E14.10868
G1 X107.37 Y82.488 E14.12486
G1 X107.825 Y82.767 E14.15149
G1 X108.049 Y82.911 E14.16477
G1 X108.435 Y83.177 E14.18816
G1 X108.776 Y83.43 E14.20935
G1 X109.009 Y83.611 E14.22407
G1 X109.282 Y83.832 E14.24159
G1 X109.533 Y84.045 E14.25801
G1 X109.798 Y84.281 E14.27572
G1 X110.041 Y84.508 E14.29231
G1 X110.286 Y84.748 E14.30942
G1 X110.531 Y85 E14.32695
G1 X110.772 Y85.261 E14.34468
G1 X110.963 Y85.476 E14.35902
G1 X111.334 Y85.919 E14.38785
G1 X111.503 Y86.132 E14.40142
G1 X111.764 Y86.483 E14.42324
G1 X112.007 Y86.832 E14.44445
G1 X112.164 Y87.069 E14.45864
G1 X112.462 Y87.541 E14.48649
G1 X112.594 Y87.763 E14.49937
G1 X112.808 Y88.151 E14.52148
G1 X113.099 Y88.727 E14.55367
G1 X113.216 Y88.975 E14.56736
G1 X113.344 Y89.264 E14.58312
G1 X113.481 Y89.592 E14.60086
G1 X113.643 Y90.017 E14.62355
G1 X113.781 Y90.419 E14.64475
G1 X113.87 Y90.697 E14.65932
G1 X113.969 Y91.03 E14.67665
G1 X114.051 Y91.332 E14.69226
G1 X114.135 Y91.669 E14.70959
G1 X114.204 Y91.974 E14.72519
G1 X114.273 Y92.315 E14.74255
G1 X114.337 Y92.679 E14.76099
G1 X114.388 Y93.024 E14.77839
G1 X114.426 Y93.327 E14.79362
G1 X114.461 Y93.665 E14.81057
G1 X114.486 Y93.979 E14.82629
G1 X114.516 Y94.545 E14.85457
G1 X114.525 Y94.988 E14.87667
G1 X114.527 Y96.704 E14.96228
G1 X115.273 Y96.906 E15.00084
G1 X115.752 Y97.085 E15.02635
G1 X116.021 Y97.197 E15.04089
G1 X116.695 Y97.521 E15.0782
G1 X117.331 Y97.915 E15.11553
G1 X117.921 Y98.375 E15.15285
G1 X118.458 Y98.895 E15.19014
G1 X119.024 Y99.588 E15.23478
G1 X119.177 Y99.802 E15.24791
G1 X119.579 Y100.433 E15.28523
G1 X119.912 Y101.103 E15.32256
G1 X120.17 Y101.805 E15.35988
G1 X120.314 Y102.343 E15.38766
G1 X120.355 Y102.526 E15.39702
G1 X120.479 Y103.263 E15.4343
G1 X120.524 Y104.045 E15.47338
G1 X120.527 Y105.997 E15.57077
G1 X120.523 Y107.377 E15.63962
G1 X120.524 Y108.878 E15.7145
G1 X120.485 Y109.625 E15.75182
G1 X120.366 Y110.364 E15.78916
G1 X120.168 Y111.086 E15.82652
G1 X119.895 Y111.782 E15.86381
G1 X119.55 Y112.445 E15.9011
G1 X119.135 Y113.068 E15.93845
G1 X118.474 Y113.833 E15.98889
G1 X118.357 Y113.95 E15.99714
G1 X117.8 Y114.45 E16.03449
G1 X117.194 Y114.887 E16.07176
G1 X116.544 Y115.258 E16.1091
G1 X115.858 Y115.557 E16.14643
G1 X115.144 Y115.781 E16.18377
G1 X114.411 Y115.928 E16.22106
G1 X113.407 Y116 E16.27128
G1 X86.592 Y116 E17.60909
G1 X85.845 Y115.96 E17.64641
G1 X85.107 Y115.841 E17.6837
G1 X84.385 Y115.643 E17.72106
G1 X83.689 Y115.37 E17.75835
G1 X83.026 Y115.023 E17.79569
G1 X82.403 Y114.608 E17.83303
G1 X81.642 Y113.95 E17.88323
G1 X81.525 Y113.833 E17.89148
G1 X81.025 Y113.276 E17.92882
G1 X80.588 Y112.67 E17.9661
G1 X80.217 Y112.02 E18.00344
G1 X79.918 Y111.334 E18.04077
G1 X79.694 Y110.62 E18.0781
G1 X79.547 Y109.887 E18.1154
G1 X79.475 Y108.882 E18.16567
G1 X79.476 Y104.076 E18.40544
G1 X79.516 Y103.329 E18.44276
G1 X79.636 Y102.59 E18.48012
G1 X79.728 Y102.217 E18.49928
G1 X79.806 Y101.934 E18.51393
G1 X80.043 Y101.225 E18.55122
G1 X80.354 Y100.544 E18.58857
